;Project TestLine5
;Created by Estlcam version 11 build 11,226
;Machining time about 00:04:23 hours

G90
M03 S24000
G00 Z5.0000


;No. 1: Engraving 1
G00 X0.0000 Y10.0000
G00 Z0.5000
G01 Z0.0000 F300 S24000
G01 Z-3.0000
G01 X114.9997 F1200
G01 Z-6.0000 F300
G01 X0.0000 F1200
G01 Z-9.0000 F300
G01 X114.9997 F1200
G01 Z-12.0000 F300
G01 X0.0000 F1200
G01 Z-15.0000 F300
G01 X114.9997 F1200
G01 Z-18.0000 F300
G01 X0.0000 F1200
G01 Z-21.0000 F300
G01 X114.9997 F1200
G01 Z-24.0000 F300
G01 X0.0000 F1200
G01 Z-27.0000 F300
G01 X114.9997 F1200
G01 Z-30.0000 F300
G01 X0.0000 F1200
G01 Z-31.5000 F300
G01 X114.9997 F1200
G00 Z5.0000
G00 X0.0000 Y0.0000

M05
