;Project ni
;Created by Estlcam version 11 build 11,226
;Machining time about 00:13:02 hours

G90
M03 S24000
G00 Z5.0000


;No. 1: Part 13
G00 X22.3944 Y86.1607
G00 Z0.5000
G01 Z0.0000 F300 S24000
G01 Z-3.0000
G01 X21.6316 Y22.8237 F3000
G01 X3.9527 Y11.9772
G01 X3.8176 Y11.8892
G01 X3.6875 Y11.7942
G01 X3.5626 Y11.6922
G01 X3.4434 Y11.5837
G01 X3.3302 Y11.4690
G01 X3.2233 Y11.3483
G01 X3.1231 Y11.2221
G01 X3.0298 Y11.0907
G01 X2.9436 Y10.9545
G01 X2.8649 Y10.8138
G01 X2.7939 Y10.6691
G01 X2.7308 Y10.5208
G01 X2.6757 Y10.3693
G01 X2.6288 Y10.2151
G01 X2.5903 Y10.0586
G01 X2.5602 Y9.9002
G01 X2.5387 Y9.7405
G01 X2.5258 Y9.5798
G01 X2.5216 Y9.4187
G01 X2.5260 Y9.2576
G01 X2.5390 Y9.0969
G01 X2.5607 Y8.9372
G01 X2.5909 Y8.7789
G01 X2.6296 Y8.6224
G01 X2.6766 Y8.4682
G01 X2.7318 Y8.3168
G01 X2.7951 Y8.1685
G01 X2.8663 Y8.0239
G01 X2.9451 Y7.8833
G01 X3.0313 Y7.7471
G01 X3.1248 Y7.6158
G01 X3.2252 Y7.4897
G01 X3.3321 Y7.3691
G01 X3.4455 Y7.2545
G01 X3.5648 Y7.1461
G01 X3.6897 Y7.0443
G01 X3.8200 Y6.9494
G01 X3.9551 Y6.8615
G01 X4.0948 Y6.7811
G01 X4.2386 Y6.7083
G01 X4.3861 Y6.6433
G01 X4.5369 Y6.5863
G01 X4.6905 Y6.5375
G01 X4.8465 Y6.4970
G01 X5.0045 Y6.4650
G01 X5.1640 Y6.4415
G01 X5.3245 Y6.4266
G01 X5.4855 Y6.4203
G01 X41.8912 Y5.9829
G01 X42.2157 Y5.9966
G01 X42.5368 Y6.0452
G01 X42.8508 Y6.1284
G01 X43.1540 Y6.2449
G01 X43.4427 Y6.3936
G01 X43.7138 Y6.5726
G01 X43.9638 Y6.7799
G01 X44.1900 Y7.0130
G01 X44.3897 Y7.2692
G01 X44.5605 Y7.5454
G01 X44.7005 Y7.8386
G01 X44.8079 Y8.1451
G01 X44.8816 Y8.4614
G01 X44.9206 Y8.7839
G01 X44.9246 Y9.1087
G01 X44.8934 Y9.4320
G01 X44.2981 Y13.4078
G01 X43.7369 Y17.3886
G01 X43.2098 Y21.3741
G01 X42.7169 Y25.3640
G01 X42.2583 Y29.3579
G01 X41.8339 Y33.3556
G01 X41.4439 Y37.3569
G01 X41.0881 Y41.3613
G01 X40.7667 Y45.3686
G01 X40.4797 Y49.3785
G01 X40.2270 Y53.3907
G01 X40.0088 Y57.4050
G01 X39.8250 Y61.4210
G01 X39.6756 Y65.4384
G01 X39.5607 Y69.4569
G01 X39.4802 Y73.4763
G01 X39.4342 Y77.4962
G01 X39.4227 Y81.5164
G01 X39.4456 Y85.5365
G01 X39.5030 Y89.5563
G01 X39.5637 Y91.8174
G01 X39.6516 Y94.0776
G01 X39.7667 Y96.3367
G01 X39.9091 Y98.5941
G01 X40.0786 Y100.8497
G01 X40.2753 Y103.1031
G01 X40.4992 Y105.3539
G01 X40.7501 Y107.6019
G01 X41.0281 Y109.8467
G01 X41.3332 Y112.0880
G01 X41.6652 Y114.3254
G01 X42.0242 Y116.5587
G01 X42.3286 Y118.3098
G01 X42.6566 Y120.0567
G01 X43.0080 Y121.7990
G01 X43.3828 Y123.5364
G01 X43.7809 Y125.2686
G01 X44.2022 Y126.9953
G01 X44.6467 Y128.7162
G01 X45.1143 Y130.4310
G01 X45.6049 Y132.1393
G01 X46.1184 Y133.8409
G01 X46.6547 Y135.5355
G01 X47.2138 Y137.2226
G01 X47.7878 Y138.8724
G01 X48.3909 Y140.5118
G01 X49.0228 Y142.1402
G01 X49.6834 Y143.7573
G01 X50.3724 Y145.3624
G01 X51.0897 Y146.9551
G01 X51.8350 Y148.5349
G01 X52.6081 Y150.1013
G01 X53.0214 Y150.9050
G01 X53.4488 Y151.7014
G01 X53.8901 Y152.4901
G01 X54.3453 Y153.2710
G01 X54.8141 Y154.0437
G01 X55.2965 Y154.8080
G01 X55.7923 Y155.5637
G01 X56.3013 Y156.3105
G01 X56.7018 Y156.8758
G01 X57.1173 Y157.4301
G01 X57.5477 Y157.9730
G01 X57.9925 Y158.5041
G01 X58.4515 Y159.0230
G01 X58.9243 Y159.5294
G01 X59.4105 Y160.0228
G01 X59.9099 Y160.5030
G01 X60.2850 Y160.8431
G01 X60.6737 Y161.1675
G01 X61.0754 Y161.4758
G01 X61.4893 Y161.7674
G01 X61.9149 Y162.0418
G01 X62.3513 Y162.2985
G01 X62.7978 Y162.5372
G01 X63.2538 Y162.7574
G01 X63.7211 Y162.9463
G01 X64.1999 Y163.1039
G01 X64.6881 Y163.2294
G01 X65.1836 Y163.3223
G01 X65.6841 Y163.3822
G01 X66.1875 Y163.4087
G01 X66.6915 Y163.4019
G01 X67.1940 Y163.3617
G01 X67.7499 Y163.3002
G01 X68.3016 Y163.2087
G01 X68.8476 Y163.0874
G01 X69.3862 Y162.9368
G01 X69.9158 Y162.7572
G01 X70.4350 Y162.5491
G01 X70.9421 Y162.3132
G01 X71.4357 Y162.0502
G01 X71.9143 Y161.7609
G01 X72.3765 Y161.4460
G01 X72.8210 Y161.1066
G01 X73.2464 Y160.7435
G01 X73.7226 Y160.2962
G01 X74.1818 Y159.8315
G01 X74.6235 Y159.3501
G01 X75.0469 Y158.8526
G01 X75.4515 Y158.3396
G01 X75.8368 Y157.8120
G01 X76.2022 Y157.2704
G01 X76.5472 Y156.7156
G01 X76.9742 Y155.9755
G01 X77.3824 Y155.2248
G01 X77.7716 Y154.4641
G01 X78.1415 Y153.6939
G01 X78.4921 Y152.9147
G01 X78.8229 Y152.1268
G01 X79.1338 Y151.3309
G01 X79.4246 Y150.5275
G01 X79.7738 Y149.4935
G01 X80.1055 Y148.4538
G01 X80.4198 Y147.4086
G01 X80.7165 Y146.3584
G01 X80.9956 Y145.3033
G01 X81.2569 Y144.2437
G01 X81.5005 Y143.1798
G01 X81.7261 Y142.1121
G01 X82.0947 Y140.1787
G01 X82.4345 Y138.2401
G01 X82.7454 Y136.2966
G01 X83.0273 Y134.3487
G01 X83.2803 Y132.3968
G01 X83.5041 Y130.4414
G01 X83.6988 Y128.4829
G01 X83.8644 Y126.5217
G01 X84.0725 Y123.6334
G01 X84.2496 Y120.7431
G01 X84.3959 Y117.8511
G01 X84.5112 Y114.9576
G01 X84.5955 Y112.0631
G01 X84.6489 Y109.1679
G01 X84.6713 Y106.2722
G01 X84.6627 Y103.3765
G01 X84.6572 Y101.1659
G01 X84.6333 Y98.9553
G01 X84.5911 Y96.7451
G01 X84.5307 Y94.5353
G01 X84.4520 Y92.3260
G01 X84.3549 Y90.1175
G01 X84.2397 Y87.9098
G01 X84.1061 Y85.7032
G01 X83.9543 Y83.4978
G01 X83.7843 Y81.2936
G01 X83.5960 Y79.0910
G01 X83.3895 Y76.8900
G01 X83.2003 Y75.0252
G01 X82.9902 Y73.1626
G01 X82.7591 Y71.3025
G01 X82.5071 Y69.4451
G01 X82.2342 Y67.5907
G01 X81.9405 Y65.7394
G01 X81.6260 Y63.8916
G01 X81.2907 Y62.0474
G01 X80.9347 Y60.2071
G01 X80.5580 Y58.3709
G01 X80.1607 Y56.5391
G01 X79.7428 Y54.7119
G01 X79.3101 Y52.9363
G01 X78.8490 Y51.1679
G01 X78.3594 Y49.4071
G01 X77.8417 Y47.6544
G01 X77.2958 Y45.9103
G01 X76.7220 Y44.1752
G01 X76.1203 Y42.4495
G01 X75.4910 Y40.7337
G01 X74.8342 Y39.0283
G01 X74.1501 Y37.3336
G01 X73.4388 Y35.6501
G01 X72.7006 Y33.9783
G01 X71.9356 Y32.3186
G01 X71.1440 Y30.6714
G01 X70.3260 Y29.0371
G01 X69.4819 Y27.4162
G01 X68.6118 Y25.8090
G01 X67.7160 Y24.2161
G01 X66.7947 Y22.6378
G01 X65.8482 Y21.0744
G01 X64.9739 Y19.6915
G01 X64.0809 Y18.3206
G01 X63.1693 Y16.9620
G01 X62.2394 Y15.6159
G01 X61.2912 Y14.2826
G01 X60.3249 Y12.9623
G01 X59.3408 Y11.6553
G01 X58.3390 Y10.3618
G01 X58.1827 Y10.0842
G01 X58.0568 Y9.7916
G01 X57.9626 Y9.4873
G01 X57.9011 Y9.1748
G01 X57.8732 Y8.8574
G01 X57.8791 Y8.5389
G01 X57.9187 Y8.2229
G01 X57.9916 Y7.9128
G01 X58.0969 Y7.6121
G01 X58.2336 Y7.3244
G01 X58.4000 Y7.0527
G01 X58.5942 Y6.8003
G01 X58.8141 Y6.5698
G01 X59.0573 Y6.3640
G01 X59.3208 Y6.1851
G01 X59.6019 Y6.0352
G01 X59.8973 Y5.9159
G01 X60.2036 Y5.8286
G01 X60.5175 Y5.7743
G01 X60.8354 Y5.7536
G01 X77.0738 Y5.5588
G00 Z0.0000
G01 X86.0731 Y5.4509
G01 Z-3.0000 F300
G01 X102.3115 Y5.2561 F3000
G01 X102.4682 Y5.2584
G01 X102.6245 Y5.2687
G01 X102.7801 Y5.2873
G01 X102.9344 Y5.3139
G01 X103.0872 Y5.3486
G01 X103.2380 Y5.3911
G01 X103.3863 Y5.4415
G01 X103.5318 Y5.4996
G01 X103.6741 Y5.5652
G01 X103.8128 Y5.6381
G01 X103.9474 Y5.7182
G01 X104.0777 Y5.8052
G01 X104.2033 Y5.8988
G01 X104.3238 Y5.9989
G01 X104.4389 Y6.1052
G01 X104.5484 Y6.2173
G01 X104.6518 Y6.3349
G01 X104.7489 Y6.4579
G01 X104.8395 Y6.5857
G01 X104.9233 Y6.7180
G01 X105.0001 Y6.8546
G01 X105.0696 Y6.9950
G01 X105.1317 Y7.1388
G01 X105.1863 Y7.2857
G01 X105.2330 Y7.4352
G01 X105.2720 Y7.5870
G01 X105.3029 Y7.7405
G01 X105.3258 Y7.8955
G01 X105.3405 Y8.0515
G01 X105.3471 Y8.2080
G01 X105.3455 Y8.3647
G01 X105.3358 Y8.5210
G01 X105.3179 Y8.6767
G01 X105.2918 Y8.8311
G01 X105.2578 Y8.9841
G01 X105.2158 Y9.1350
G01 X105.1660 Y9.2835
G01 X105.1085 Y9.4293
G01 X105.0435 Y9.5718
G01 X104.9711 Y9.7108
G01 X104.8916 Y9.8457
G01 X104.8052 Y9.9764
G01 X104.7120 Y10.1023
G01 X104.6124 Y10.2232
G01 X104.5066 Y10.3388
G01 X104.3949 Y10.4487
G01 X104.2777 Y10.5526
G01 X104.1551 Y10.6502
G01 X104.0277 Y10.7413
G01 X103.8956 Y10.8256
G01 X103.7594 Y10.9029
G01 X103.6193 Y10.9730
G01 X81.6023 Y21.2785
G01 X81.5778 Y21.2951
G01 X82.6827 Y22.7075
G01 X83.7649 Y24.1372
G01 X84.8242 Y25.5840
G01 X85.8604 Y27.0475
G01 X86.8732 Y28.5273
G01 X87.8623 Y30.0230
G01 X88.8275 Y31.5342
G01 X89.7686 Y33.0606
G01 X90.6852 Y34.6018
G01 X91.5773 Y36.1573
G01 X92.4444 Y37.7269
G01 X93.2865 Y39.3100
G01 X94.1033 Y40.9064
G01 X94.8947 Y42.5155
G01 X95.6603 Y44.1370
G01 X96.4000 Y45.7705
G01 X97.1137 Y47.4155
G01 X97.8011 Y49.0717
G01 X98.4621 Y50.7386
G01 X99.0965 Y52.4158
G01 X99.6682 Y54.0408
G01 X100.2172 Y55.6736
G01 X100.7435 Y57.3139
G01 X101.2470 Y58.9613
G01 X101.7276 Y60.6156
G01 X102.1852 Y62.2764
G01 X102.6196 Y63.9433
G01 X103.0309 Y65.6162
G01 X103.4189 Y67.2945
G01 X103.7836 Y68.9781
G01 X104.1249 Y70.6667
G01 X104.4427 Y72.3597
G01 X104.7370 Y74.0571
G01 X105.0077 Y75.7583
G01 X105.2547 Y77.4632
G01 X105.4781 Y79.1713
G01 X105.7202 Y81.2317
G01 X105.9367 Y83.2949
G01 X106.1276 Y85.3607
G01 X106.2929 Y87.4287
G01 X106.4325 Y89.4986
G01 X106.5465 Y91.5701
G01 X106.6347 Y93.6428
G01 X106.6972 Y95.7164
G01 X106.7340 Y97.7907
G01 X106.7450 Y99.8653
G01 X106.7303 Y101.9398
G01 X106.6899 Y104.0140
G01 X106.6435 Y106.0318
G01 X106.5700 Y108.0489
G01 X106.4693 Y110.0648
G01 X106.3416 Y112.0791
G01 X106.1867 Y114.0916
G01 X106.0048 Y116.1018
G01 X105.7959 Y118.1093
G01 X105.5600 Y120.1139
G01 X105.2972 Y122.1151
G01 X105.0074 Y124.1126
G01 X104.6908 Y126.1060
G01 X104.3475 Y128.0950
G01 X104.0181 Y129.8466
G01 X103.6579 Y131.5921
G01 X103.2669 Y133.3310
G01 X102.8454 Y135.0627
G01 X102.3934 Y136.7867
G01 X101.9110 Y138.5025
G01 X101.3985 Y140.2095
G01 X100.8560 Y141.9072
G01 X100.2836 Y143.5951
G01 X99.6815 Y145.2726
G01 X99.0499 Y146.9392
G01 X98.3890 Y148.5944
G01 X97.7991 Y149.9843
G01 X97.1819 Y151.3622
G01 X96.5377 Y152.7277
G01 X95.8666 Y154.0803
G01 X95.1691 Y155.4194
G01 X94.4453 Y156.7444
G01 X93.6955 Y158.0550
G01 X92.9201 Y159.3505
G01 X92.6153 Y159.8235
G00 Z0.0000
G01 X92.0151 Y160.7751
G01 X91.3914 Y161.7116
G01 X90.7446 Y162.6322
G01 X90.0752 Y163.5364
G01 X89.3834 Y164.4236
G01 X88.6697 Y165.2934
G01 X87.9346 Y166.1452
G01 X87.1786 Y166.9783
G01 Z-3.0000 F300
G01 X86.5965 Y167.6086 F3000
G01 X85.9970 Y168.2223
G01 X85.3808 Y168.8192
G01 X84.7481 Y169.3987
G01 X84.0995 Y169.9603
G01 X83.4356 Y170.5036
G01 X82.7568 Y171.0283
G01 X82.0637 Y171.5339
G01 X81.3568 Y172.0200
G01 X80.6366 Y172.4862
G01 X79.9037 Y172.9322
G01 X79.1586 Y173.3576
G01 X78.3507 Y173.7836
G01 X77.5273 Y174.1791
G01 X76.6897 Y174.5436
G01 X75.8391 Y174.8764
G01 X74.9767 Y175.1773
G01 X74.1036 Y175.4457
G01 X73.2210 Y175.6812
G01 X72.3303 Y175.8837
G01 X71.4327 Y176.0526
G01 X70.5293 Y176.1879
G01 X69.6215 Y176.2893
G01 X68.7106 Y176.3567
G01 X67.7978 Y176.3900
G01 X66.8844 Y176.3892
G01 X65.9716 Y176.3542
G01 X65.0608 Y176.2851
G01 X64.3993 Y176.1960
G01 X63.7409 Y176.0863
G01 X63.0863 Y175.9560
G01 X62.4361 Y175.8054
G01 X61.7908 Y175.6345
G01 X61.1513 Y175.4436
G01 X60.5180 Y175.2327
G01 X59.8916 Y175.0022
G01 X59.2728 Y174.7522
G01 X58.6620 Y174.4829
G01 X58.0600 Y174.1947
G01 X57.4672 Y173.8879
G01 X56.8844 Y173.5626
G01 X56.3120 Y173.2193
G01 X55.7506 Y172.8583
G01 X55.2008 Y172.4799
G01 X54.5736 Y172.0205
G01 X53.9574 Y171.5465
G01 X53.3524 Y171.0583
G01 X52.7590 Y170.5561
G01 X52.1774 Y170.0402
G01 X51.6081 Y169.5109
G01 X51.0513 Y168.9683
G01 X50.5073 Y168.4129
G01 X49.9765 Y167.8450
G01 X49.4591 Y167.2648
G01 X48.9553 Y166.6727
G01 X48.4656 Y166.0690
G01 X47.8273 Y165.2479
G01 X47.2040 Y164.4155
G01 X46.5959 Y163.5720
G01 X46.0030 Y162.7176
G01 X45.4257 Y161.8527
G01 X44.8642 Y160.9774
G01 X44.3185 Y160.0922
G01 X43.7889 Y159.1972
G01 X43.2756 Y158.2928
G01 X42.7787 Y157.3793
G01 X42.2984 Y156.4570
G01 X41.8348 Y155.5261
G01 X41.0730 Y153.9483
G01 X40.3440 Y152.3551
G01 X39.6480 Y150.7472
G01 X38.9855 Y149.1252
G01 X38.6682 Y153.2657
G01 X38.3747 Y171.3058
G01 X38.3674 Y171.4709
G01 X38.3511 Y171.6353
G01 X38.3258 Y171.7986
G01 X38.2915 Y171.9603
G01 X38.2483 Y172.1198
G01 X38.1965 Y172.2767
G01 X38.1361 Y172.4304
G01 X38.0673 Y172.5807
G01 X37.9903 Y172.7269
G01 X37.9054 Y172.8687
G01 X37.8128 Y173.0055
G01 X37.7129 Y173.1371
G01 X37.6058 Y173.2630
G01 X37.4920 Y173.3827
G01 X37.3717 Y173.4961
G01 X37.2454 Y173.6026
G01 X37.1135 Y173.7020
G01 X36.9762 Y173.7940
G01 X36.8341 Y173.8783
G01 X36.6876 Y173.9547
G01 X36.5370 Y174.0229
G01 X36.3830 Y174.0826
G01 X36.2259 Y174.1338
G01 X36.0662 Y174.1763
G01 X35.9044 Y174.2100
G01 X35.7411 Y174.2346
G01 X35.5766 Y174.2503
G01 X35.4115 Y174.2568
G01 X7.5110 Y174.5955
G01 X7.3480 Y174.5930
G01 X7.1854 Y174.5817
G01 X7.0237 Y174.5616
G01 X6.8633 Y174.5328
G01 X6.7047 Y174.4952
G01 X6.5483 Y174.4491
G01 X6.3947 Y174.3946
G01 X6.2443 Y174.3319
G01 X6.0976 Y174.2610
G01 X5.9548 Y174.1823
G01 X5.8166 Y174.0960
G01 X5.6833 Y174.0022
G01 X5.5552 Y173.9014
G01 X5.4329 Y173.7938
G01 X5.3165 Y173.6796
G01 X5.2065 Y173.5594
G01 X5.1032 Y173.4333
G01 X5.0069 Y173.3018
G01 X4.9179 Y173.1653
G01 X4.8364 Y173.0241
G01 X4.7628 Y172.8788
G01 X4.6971 Y172.7296
G01 X4.6396 Y172.5771
G01 X4.5905 Y172.4217
G01 X4.5499 Y172.2638
G01 X4.5179 Y172.1040
G01 X4.4947 Y171.9427
G01 X4.4802 Y171.7804
G01 X4.4746 Y171.6175
G01 X4.4779 Y171.4545
G01 X4.4900 Y171.2920
G01 X4.5109 Y171.1304
G01 X4.5405 Y170.9701
G01 X4.5788 Y170.8117
G01 X4.6257 Y170.6556
G01 X4.6809 Y170.5023
G01 X4.7444 Y170.3522
G01 X4.8160 Y170.2057
G01 X4.8954 Y170.0634
G01 X4.9824 Y169.9256
G01 X5.0768 Y169.7927
G01 X5.1782 Y169.6652
G01 X5.2865 Y169.5433
G01 X5.4011 Y169.4275
G01 X5.5220 Y169.3181
G01 X5.6485 Y169.2154
G01 X5.7805 Y169.1198
G01 X5.9174 Y169.0314
G01 X23.2657 Y158.4970
G01 X22.5028 Y95.1601
G00 Z0.0000
G01 X22.3944 Y86.1607
G00 Z-2.5000
G01 Z-3.0000 F300
G01 Z-6.0000
G01 X21.6316 Y22.8237 F3000
G01 X3.9527 Y11.9772
G01 X3.8176 Y11.8892
G01 X3.6875 Y11.7942
G01 X3.5626 Y11.6922
G01 X3.4434 Y11.5837
G01 X3.3302 Y11.4690
G01 X3.2233 Y11.3483
G01 X3.1231 Y11.2221
G01 X3.0298 Y11.0907
G01 X2.9436 Y10.9545
G01 X2.8649 Y10.8138
G01 X2.7939 Y10.6691
G01 X2.7308 Y10.5208
G01 X2.6757 Y10.3693
G01 X2.6288 Y10.2151
G01 X2.5903 Y10.0586
G01 X2.5602 Y9.9002
G01 X2.5387 Y9.7405
G01 X2.5258 Y9.5798
G01 X2.5216 Y9.4187
G01 X2.5260 Y9.2576
G01 X2.5390 Y9.0969
G01 X2.5607 Y8.9372
G01 X2.5909 Y8.7789
G01 X2.6296 Y8.6224
G01 X2.6766 Y8.4682
G01 X2.7318 Y8.3168
G01 X2.7951 Y8.1685
G01 X2.8663 Y8.0239
G01 X2.9451 Y7.8833
G01 X3.0313 Y7.7471
G01 X3.1248 Y7.6158
G01 X3.2252 Y7.4897
G01 X3.3321 Y7.3691
G01 X3.4455 Y7.2545
G01 X3.5648 Y7.1461
G01 X3.6897 Y7.0443
G01 X3.8200 Y6.9494
G01 X3.9551 Y6.8615
G01 X4.0948 Y6.7811
G01 X4.2386 Y6.7083
G01 X4.3861 Y6.6433
G01 X4.5369 Y6.5863
G01 X4.6905 Y6.5375
G01 X4.8465 Y6.4970
G01 X5.0045 Y6.4650
G01 X5.1640 Y6.4415
G01 X5.3245 Y6.4266
G01 X5.4855 Y6.4203
G01 X41.8912 Y5.9829
G01 X42.2157 Y5.9966
G01 X42.5368 Y6.0452
G01 X42.8508 Y6.1284
G01 X43.1540 Y6.2449
G01 X43.4427 Y6.3936
G01 X43.7138 Y6.5726
G01 X43.9638 Y6.7799
G01 X44.1900 Y7.0130
G01 X44.3897 Y7.2692
G01 X44.5605 Y7.5454
G01 X44.7005 Y7.8386
G01 X44.8079 Y8.1451
G01 X44.8816 Y8.4614
G01 X44.9206 Y8.7839
G01 X44.9246 Y9.1087
G01 X44.8934 Y9.4320
G01 X44.2981 Y13.4078
G01 X43.7369 Y17.3886
G01 X43.2098 Y21.3741
G01 X42.7169 Y25.3640
G01 X42.2583 Y29.3579
G01 X41.8339 Y33.3556
G01 X41.4439 Y37.3569
G01 X41.0881 Y41.3613
G01 X40.7667 Y45.3686
G01 X40.4797 Y49.3785
G01 X40.2270 Y53.3907
G01 X40.0088 Y57.4050
G01 X39.8250 Y61.4210
G01 X39.6756 Y65.4384
G01 X39.5607 Y69.4569
G01 X39.4802 Y73.4763
G01 X39.4342 Y77.4962
G01 X39.4227 Y81.5164
G01 X39.4456 Y85.5365
G01 X39.5030 Y89.5563
G01 X39.5637 Y91.8174
G01 X39.6516 Y94.0776
G01 X39.7667 Y96.3367
G01 X39.9091 Y98.5941
G01 X40.0786 Y100.8497
G01 X40.2753 Y103.1031
G01 X40.4992 Y105.3539
G01 X40.7501 Y107.6019
G01 X41.0281 Y109.8467
G01 X41.3332 Y112.0880
G01 X41.6652 Y114.3254
G01 X42.0242 Y116.5587
G01 X42.3286 Y118.3098
G01 X42.6566 Y120.0567
G01 X43.0080 Y121.7990
G01 X43.3828 Y123.5364
G01 X43.7809 Y125.2686
G01 X44.2022 Y126.9953
G01 X44.6467 Y128.7162
G01 X45.1143 Y130.4310
G01 X45.6049 Y132.1393
G01 X46.1184 Y133.8409
G01 X46.6547 Y135.5355
G01 X47.2138 Y137.2226
G01 X47.7878 Y138.8724
G01 X48.3909 Y140.5118
G01 X49.0228 Y142.1402
G01 X49.6834 Y143.7573
G01 X50.3724 Y145.3624
G01 X51.0897 Y146.9551
G01 X51.8350 Y148.5349
G01 X52.6081 Y150.1013
G01 X53.0214 Y150.9050
G01 X53.4488 Y151.7014
G01 X53.8901 Y152.4901
G01 X54.3453 Y153.2710
G01 X54.8141 Y154.0437
G01 X55.2965 Y154.8080
G01 X55.7923 Y155.5637
G01 X56.3013 Y156.3105
G01 X56.7018 Y156.8758
G01 X57.1173 Y157.4301
G01 X57.5477 Y157.9730
G01 X57.9925 Y158.5041
G01 X58.4515 Y159.0230
G01 X58.9243 Y159.5294
G01 X59.4105 Y160.0228
G01 X59.9099 Y160.5030
G01 X60.2850 Y160.8431
G01 X60.6737 Y161.1675
G01 X61.0754 Y161.4758
G01 X61.4893 Y161.7674
G01 X61.9149 Y162.0418
G01 X62.3513 Y162.2985
G01 X62.7978 Y162.5372
G01 X63.2538 Y162.7574
G01 X63.7211 Y162.9463
G01 X64.1999 Y163.1039
G01 X64.6881 Y163.2294
G01 X65.1836 Y163.3223
G01 X65.6841 Y163.3822
G01 X66.1875 Y163.4087
G01 X66.6915 Y163.4019
G01 X67.1940 Y163.3617
G01 X67.7499 Y163.3002
G01 X68.3016 Y163.2087
G01 X68.8476 Y163.0874
G01 X69.3862 Y162.9368
G01 X69.9158 Y162.7572
G01 X70.4350 Y162.5491
G01 X70.9421 Y162.3132
G01 X71.4357 Y162.0502
G01 X71.9143 Y161.7609
G01 X72.3765 Y161.4460
G01 X72.8210 Y161.1066
G01 X73.2464 Y160.7435
G01 X73.7226 Y160.2962
G01 X74.1818 Y159.8315
G01 X74.6235 Y159.3501
G01 X75.0469 Y158.8526
G01 X75.4515 Y158.3396
G01 X75.8368 Y157.8120
G01 X76.2022 Y157.2704
G01 X76.5472 Y156.7156
G01 X76.9742 Y155.9755
G01 X77.3824 Y155.2248
G01 X77.7716 Y154.4641
G01 X78.1415 Y153.6939
G01 X78.4921 Y152.9147
G01 X78.8229 Y152.1268
G01 X79.1338 Y151.3309
G01 X79.4246 Y150.5275
G01 X79.7738 Y149.4935
G01 X80.1055 Y148.4538
G01 X80.4198 Y147.4086
G01 X80.7165 Y146.3584
G01 X80.9956 Y145.3033
G01 X81.2569 Y144.2437
G01 X81.5005 Y143.1798
G01 X81.7261 Y142.1121
G01 X82.0947 Y140.1787
G01 X82.4345 Y138.2401
G01 X82.7454 Y136.2966
G01 X83.0273 Y134.3487
G01 X83.2803 Y132.3968
G01 X83.5041 Y130.4414
G01 X83.6988 Y128.4829
G01 X83.8644 Y126.5217
G01 X84.0725 Y123.6334
G01 X84.2496 Y120.7431
G01 X84.3959 Y117.8511
G01 X84.5112 Y114.9576
G01 X84.5955 Y112.0631
G01 X84.6489 Y109.1679
G01 X84.6713 Y106.2722
G01 X84.6627 Y103.3765
G01 X84.6572 Y101.1659
G01 X84.6333 Y98.9553
G01 X84.5911 Y96.7451
G01 X84.5307 Y94.5353
G01 X84.4520 Y92.3260
G01 X84.3549 Y90.1175
G01 X84.2397 Y87.9098
G01 X84.1061 Y85.7032
G01 X83.9543 Y83.4978
G01 X83.7843 Y81.2936
G01 X83.5960 Y79.0910
G01 X83.3895 Y76.8900
G01 X83.2003 Y75.0252
G01 X82.9902 Y73.1626
G01 X82.7591 Y71.3025
G01 X82.5071 Y69.4451
G01 X82.2342 Y67.5907
G01 X81.9405 Y65.7394
G01 X81.6260 Y63.8916
G01 X81.2907 Y62.0474
G01 X80.9347 Y60.2071
G01 X80.5580 Y58.3709
G01 X80.1607 Y56.5391
G01 X79.7428 Y54.7119
G01 X79.3101 Y52.9363
G01 X78.8490 Y51.1679
G01 X78.3594 Y49.4071
G01 X77.8417 Y47.6544
G01 X77.2958 Y45.9103
G01 X76.7220 Y44.1752
G01 X76.1203 Y42.4495
G01 X75.4910 Y40.7337
G01 X74.8342 Y39.0283
G01 X74.1501 Y37.3336
G01 X73.4388 Y35.6501
G01 X72.7006 Y33.9783
G01 X71.9356 Y32.3186
G01 X71.1440 Y30.6714
G01 X70.3260 Y29.0371
G01 X69.4819 Y27.4162
G01 X68.6118 Y25.8090
G01 X67.7160 Y24.2161
G01 X66.7947 Y22.6378
G01 X65.8482 Y21.0744
G01 X64.9739 Y19.6915
G01 X64.0809 Y18.3206
G01 X63.1693 Y16.9620
G01 X62.2394 Y15.6159
G01 X61.2912 Y14.2826
G01 X60.3249 Y12.9623
G01 X59.3408 Y11.6553
G01 X58.3390 Y10.3618
G01 X58.1827 Y10.0842
G01 X58.0568 Y9.7916
G01 X57.9626 Y9.4873
G01 X57.9011 Y9.1748
G01 X57.8732 Y8.8574
G01 X57.8791 Y8.5389
G01 X57.9187 Y8.2229
G01 X57.9916 Y7.9128
G01 X58.0969 Y7.6121
G01 X58.2336 Y7.3244
G01 X58.4000 Y7.0527
G01 X58.5942 Y6.8003
G01 X58.8141 Y6.5698
G01 X59.0573 Y6.3640
G01 X59.3208 Y6.1851
G01 X59.6019 Y6.0352
G01 X59.8973 Y5.9159
G01 X60.2036 Y5.8286
G01 X60.5175 Y5.7743
G01 X60.8354 Y5.7536
G01 X77.0738 Y5.5588
G00 Z0.0000
G01 X86.0731 Y5.4509
G00 Z-2.5000
G01 Z-3.0000 F300
G01 Z-6.0000
G01 X102.3115 Y5.2561 F3000
G01 X102.4682 Y5.2584
G01 X102.6245 Y5.2687
G01 X102.7801 Y5.2873
G01 X102.9344 Y5.3139
G01 X103.0872 Y5.3486
G01 X103.2380 Y5.3911
G01 X103.3863 Y5.4415
G01 X103.5318 Y5.4996
G01 X103.6741 Y5.5652
G01 X103.8128 Y5.6381
G01 X103.9474 Y5.7182
G01 X104.0777 Y5.8052
G01 X104.2033 Y5.8988
G01 X104.3238 Y5.9989
G01 X104.4389 Y6.1052
G01 X104.5484 Y6.2173
G01 X104.6518 Y6.3349
G01 X104.7489 Y6.4579
G01 X104.8395 Y6.5857
G01 X104.9233 Y6.7180
G01 X105.0001 Y6.8546
G01 X105.0696 Y6.9950
G01 X105.1317 Y7.1388
G01 X105.1863 Y7.2857
G01 X105.2330 Y7.4352
G01 X105.2720 Y7.5870
G01 X105.3029 Y7.7405
G01 X105.3258 Y7.8955
G01 X105.3405 Y8.0515
G01 X105.3471 Y8.2080
G01 X105.3455 Y8.3647
G01 X105.3358 Y8.5210
G01 X105.3179 Y8.6767
G01 X105.2918 Y8.8311
G01 X105.2578 Y8.9841
G01 X105.2158 Y9.1350
G01 X105.1660 Y9.2835
G01 X105.1085 Y9.4293
G01 X105.0435 Y9.5718
G01 X104.9711 Y9.7108
G01 X104.8916 Y9.8457
G01 X104.8052 Y9.9764
G01 X104.7120 Y10.1023
G01 X104.6124 Y10.2232
G01 X104.5066 Y10.3388
G01 X104.3949 Y10.4487
G01 X104.2777 Y10.5526
G01 X104.1551 Y10.6502
G01 X104.0277 Y10.7413
G01 X103.8956 Y10.8256
G01 X103.7594 Y10.9029
G01 X103.6193 Y10.9730
G01 X81.6023 Y21.2785
G01 X81.5778 Y21.2951
G01 X82.6827 Y22.7075
G01 X83.7649 Y24.1372
G01 X84.8242 Y25.5840
G01 X85.8604 Y27.0475
G01 X86.8732 Y28.5273
G01 X87.8623 Y30.0230
G01 X88.8275 Y31.5342
G01 X89.7686 Y33.0606
G01 X90.6852 Y34.6018
G01 X91.5773 Y36.1573
G01 X92.4444 Y37.7269
G01 X93.2865 Y39.3100
G01 X94.1033 Y40.9064
G01 X94.8947 Y42.5155
G01 X95.6603 Y44.1370
G01 X96.4000 Y45.7705
G01 X97.1137 Y47.4155
G01 X97.8011 Y49.0717
G01 X98.4621 Y50.7386
G01 X99.0965 Y52.4158
G01 X99.6682 Y54.0408
G01 X100.2172 Y55.6736
G01 X100.7435 Y57.3139
G01 X101.2470 Y58.9613
G01 X101.7276 Y60.6156
G01 X102.1852 Y62.2764
G01 X102.6196 Y63.9433
G01 X103.0309 Y65.6162
G01 X103.4189 Y67.2945
G01 X103.7836 Y68.9781
G01 X104.1249 Y70.6667
G01 X104.4427 Y72.3597
G01 X104.7370 Y74.0571
G01 X105.0077 Y75.7583
G01 X105.2547 Y77.4632
G01 X105.4781 Y79.1713
G01 X105.7202 Y81.2317
G01 X105.9367 Y83.2949
G01 X106.1276 Y85.3607
G01 X106.2929 Y87.4287
G01 X106.4325 Y89.4986
G01 X106.5465 Y91.5701
G01 X106.6347 Y93.6428
G01 X106.6972 Y95.7164
G01 X106.7340 Y97.7907
G01 X106.7450 Y99.8653
G01 X106.7303 Y101.9398
G01 X106.6899 Y104.0140
G01 X106.6435 Y106.0318
G01 X106.5700 Y108.0489
G01 X106.4693 Y110.0648
G01 X106.3416 Y112.0791
G01 X106.1867 Y114.0916
G01 X106.0048 Y116.1018
G01 X105.7959 Y118.1093
G01 X105.5600 Y120.1139
G01 X105.2972 Y122.1151
G01 X105.0074 Y124.1126
G01 X104.6908 Y126.1060
G01 X104.3475 Y128.0950
G01 X104.0181 Y129.8466
G01 X103.6579 Y131.5921
G01 X103.2669 Y133.3310
G01 X102.8454 Y135.0627
G01 X102.3934 Y136.7867
G01 X101.9110 Y138.5025
G01 X101.3985 Y140.2095
G01 X100.8560 Y141.9072
G01 X100.2836 Y143.5951
G01 X99.6815 Y145.2726
G01 X99.0499 Y146.9392
G01 X98.3890 Y148.5944
G01 X97.7991 Y149.9843
G01 X97.1819 Y151.3622
G01 X96.5377 Y152.7277
G01 X95.8666 Y154.0803
G01 X95.1691 Y155.4194
G01 X94.4453 Y156.7444
G01 X93.6955 Y158.0550
G01 X92.9201 Y159.3505
G01 X92.6153 Y159.8235
G00 Z0.0000
G01 X92.0151 Y160.7751
G01 X91.3914 Y161.7116
G01 X90.7446 Y162.6322
G01 X90.0752 Y163.5364
G01 X89.3834 Y164.4236
G01 X88.6697 Y165.2934
G01 X87.9346 Y166.1452
G01 X87.1786 Y166.9783
G00 Z-2.5000
G01 Z-3.0000 F300
G01 Z-6.0000
G01 X86.5965 Y167.6086 F3000
G01 X85.9970 Y168.2223
G01 X85.3808 Y168.8192
G01 X84.7481 Y169.3987
G01 X84.0995 Y169.9603
G01 X83.4356 Y170.5036
G01 X82.7568 Y171.0283
G01 X82.0637 Y171.5339
G01 X81.3568 Y172.0200
G01 X80.6366 Y172.4862
G01 X79.9037 Y172.9322
G01 X79.1586 Y173.3576
G01 X78.3507 Y173.7836
G01 X77.5273 Y174.1791
G01 X76.6897 Y174.5436
G01 X75.8391 Y174.8764
G01 X74.9767 Y175.1773
G01 X74.1036 Y175.4457
G01 X73.2210 Y175.6812
G01 X72.3303 Y175.8837
G01 X71.4327 Y176.0526
G01 X70.5293 Y176.1879
G01 X69.6215 Y176.2893
G01 X68.7106 Y176.3567
G01 X67.7978 Y176.3900
G01 X66.8844 Y176.3892
G01 X65.9716 Y176.3542
G01 X65.0608 Y176.2851
G01 X64.3993 Y176.1960
G01 X63.7409 Y176.0863
G01 X63.0863 Y175.9560
G01 X62.4361 Y175.8054
G01 X61.7908 Y175.6345
G01 X61.1513 Y175.4436
G01 X60.5180 Y175.2327
G01 X59.8916 Y175.0022
G01 X59.2728 Y174.7522
G01 X58.6620 Y174.4829
G01 X58.0600 Y174.1947
G01 X57.4672 Y173.8879
G01 X56.8844 Y173.5626
G01 X56.3120 Y173.2193
G01 X55.7506 Y172.8583
G01 X55.2008 Y172.4799
G01 X54.5736 Y172.0205
G01 X53.9574 Y171.5465
G01 X53.3524 Y171.0583
G01 X52.7590 Y170.5561
G01 X52.1774 Y170.0402
G01 X51.6081 Y169.5109
G01 X51.0513 Y168.9683
G01 X50.5073 Y168.4129
G01 X49.9765 Y167.8450
G01 X49.4591 Y167.2648
G01 X48.9553 Y166.6727
G01 X48.4656 Y166.0690
G01 X47.8273 Y165.2479
G01 X47.2040 Y164.4155
G01 X46.5959 Y163.5720
G01 X46.0030 Y162.7176
G01 X45.4257 Y161.8527
G01 X44.8642 Y160.9774
G01 X44.3185 Y160.0922
G01 X43.7889 Y159.1972
G01 X43.2756 Y158.2928
G01 X42.7787 Y157.3793
G01 X42.2984 Y156.4570
G01 X41.8348 Y155.5261
G01 X41.0730 Y153.9483
G01 X40.3440 Y152.3551
G01 X39.6480 Y150.7472
G01 X38.9855 Y149.1252
G01 X38.6682 Y153.2657
G01 X38.3747 Y171.3058
G01 X38.3674 Y171.4709
G01 X38.3511 Y171.6353
G01 X38.3258 Y171.7986
G01 X38.2915 Y171.9603
G01 X38.2483 Y172.1198
G01 X38.1965 Y172.2767
G01 X38.1361 Y172.4304
G01 X38.0673 Y172.5807
G01 X37.9903 Y172.7269
G01 X37.9054 Y172.8687
G01 X37.8128 Y173.0055
G01 X37.7129 Y173.1371
G01 X37.6058 Y173.2630
G01 X37.4920 Y173.3827
G01 X37.3717 Y173.4961
G01 X37.2454 Y173.6026
G01 X37.1135 Y173.7020
G01 X36.9762 Y173.7940
G01 X36.8341 Y173.8783
G01 X36.6876 Y173.9547
G01 X36.5370 Y174.0229
G01 X36.3830 Y174.0826
G01 X36.2259 Y174.1338
G01 X36.0662 Y174.1763
G01 X35.9044 Y174.2100
G01 X35.7411 Y174.2346
G01 X35.5766 Y174.2503
G01 X35.4115 Y174.2568
G01 X7.5110 Y174.5955
G01 X7.3480 Y174.5930
G01 X7.1854 Y174.5817
G01 X7.0237 Y174.5616
G01 X6.8633 Y174.5328
G01 X6.7047 Y174.4952
G01 X6.5483 Y174.4491
G01 X6.3947 Y174.3946
G01 X6.2443 Y174.3319
G01 X6.0976 Y174.2610
G01 X5.9548 Y174.1823
G01 X5.8166 Y174.0960
G01 X5.6833 Y174.0022
G01 X5.5552 Y173.9014
G01 X5.4329 Y173.7938
G01 X5.3165 Y173.6796
G01 X5.2065 Y173.5594
G01 X5.1032 Y173.4333
G01 X5.0069 Y173.3018
G01 X4.9179 Y173.1653
G01 X4.8364 Y173.0241
G01 X4.7628 Y172.8788
G01 X4.6971 Y172.7296
G01 X4.6396 Y172.5771
G01 X4.5905 Y172.4217
G01 X4.5499 Y172.2638
G01 X4.5179 Y172.1040
G01 X4.4947 Y171.9427
G01 X4.4802 Y171.7804
G01 X4.4746 Y171.6175
G01 X4.4779 Y171.4545
G01 X4.4900 Y171.2920
G01 X4.5109 Y171.1304
G01 X4.5405 Y170.9701
G01 X4.5788 Y170.8117
G01 X4.6257 Y170.6556
G01 X4.6809 Y170.5023
G01 X4.7444 Y170.3522
G01 X4.8160 Y170.2057
G01 X4.8954 Y170.0634
G01 X4.9824 Y169.9256
G01 X5.0768 Y169.7927
G01 X5.1782 Y169.6652
G01 X5.2865 Y169.5433
G01 X5.4011 Y169.4275
G01 X5.5220 Y169.3181
G01 X5.6485 Y169.2154
G01 X5.7805 Y169.1198
G01 X5.9174 Y169.0314
G01 X23.2657 Y158.4970
G01 X22.5028 Y95.1601
G00 Z0.0000
G01 X22.3944 Y86.1607
G00 Z-5.5000
G01 Z-6.0000 F300
G01 Z-9.0000
G01 X21.6316 Y22.8237 F3000
G01 X3.9527 Y11.9772
G01 X3.8176 Y11.8892
G01 X3.6875 Y11.7942
G01 X3.5626 Y11.6922
G01 X3.4434 Y11.5837
G01 X3.3302 Y11.4690
G01 X3.2233 Y11.3483
G01 X3.1231 Y11.2221
G01 X3.0298 Y11.0907
G01 X2.9436 Y10.9545
G01 X2.8649 Y10.8138
G01 X2.7939 Y10.6691
G01 X2.7308 Y10.5208
G01 X2.6757 Y10.3693
G01 X2.6288 Y10.2151
G01 X2.5903 Y10.0586
G01 X2.5602 Y9.9002
G01 X2.5387 Y9.7405
G01 X2.5258 Y9.5798
G01 X2.5216 Y9.4187
G01 X2.5260 Y9.2576
G01 X2.5390 Y9.0969
G01 X2.5607 Y8.9372
G01 X2.5909 Y8.7789
G01 X2.6296 Y8.6224
G01 X2.6766 Y8.4682
G01 X2.7318 Y8.3168
G01 X2.7951 Y8.1685
G01 X2.8663 Y8.0239
G01 X2.9451 Y7.8833
G01 X3.0313 Y7.7471
G01 X3.1248 Y7.6158
G01 X3.2252 Y7.4897
G01 X3.3321 Y7.3691
G01 X3.4455 Y7.2545
G01 X3.5648 Y7.1461
G01 X3.6897 Y7.0443
G01 X3.8200 Y6.9494
G01 X3.9551 Y6.8615
G01 X4.0948 Y6.7811
G01 X4.2386 Y6.7083
G01 X4.3861 Y6.6433
G01 X4.5369 Y6.5863
G01 X4.6905 Y6.5375
G01 X4.8465 Y6.4970
G01 X5.0045 Y6.4650
G01 X5.1640 Y6.4415
G01 X5.3245 Y6.4266
G01 X5.4855 Y6.4203
G01 X41.8912 Y5.9829
G01 X42.2157 Y5.9966
G01 X42.5368 Y6.0452
G01 X42.8508 Y6.1284
G01 X43.1540 Y6.2449
G01 X43.4427 Y6.3936
G01 X43.7138 Y6.5726
G01 X43.9638 Y6.7799
G01 X44.1900 Y7.0130
G01 X44.3897 Y7.2692
G01 X44.5605 Y7.5454
G01 X44.7005 Y7.8386
G01 X44.8079 Y8.1451
G01 X44.8816 Y8.4614
G01 X44.9206 Y8.7839
G01 X44.9246 Y9.1087
G01 X44.8934 Y9.4320
G01 X44.2981 Y13.4078
G01 X43.7369 Y17.3886
G01 X43.2098 Y21.3741
G01 X42.7169 Y25.3640
G01 X42.2583 Y29.3579
G01 X41.8339 Y33.3556
G01 X41.4439 Y37.3569
G01 X41.0881 Y41.3613
G01 X40.7667 Y45.3686
G01 X40.4797 Y49.3785
G01 X40.2270 Y53.3907
G01 X40.0088 Y57.4050
G01 X39.8250 Y61.4210
G01 X39.6756 Y65.4384
G01 X39.5607 Y69.4569
G01 X39.4802 Y73.4763
G01 X39.4342 Y77.4962
G01 X39.4227 Y81.5164
G01 X39.4456 Y85.5365
G01 X39.5030 Y89.5563
G01 X39.5637 Y91.8174
G01 X39.6516 Y94.0776
G01 X39.7667 Y96.3367
G01 X39.9091 Y98.5941
G01 X40.0786 Y100.8497
G01 X40.2753 Y103.1031
G01 X40.4992 Y105.3539
G01 X40.7501 Y107.6019
G01 X41.0281 Y109.8467
G01 X41.3332 Y112.0880
G01 X41.6652 Y114.3254
G01 X42.0242 Y116.5587
G01 X42.3286 Y118.3098
G01 X42.6566 Y120.0567
G01 X43.0080 Y121.7990
G01 X43.3828 Y123.5364
G01 X43.7809 Y125.2686
G01 X44.2022 Y126.9953
G01 X44.6467 Y128.7162
G01 X45.1143 Y130.4310
G01 X45.6049 Y132.1393
G01 X46.1184 Y133.8409
G01 X46.6547 Y135.5355
G01 X47.2138 Y137.2226
G01 X47.7878 Y138.8724
G01 X48.3909 Y140.5118
G01 X49.0228 Y142.1402
G01 X49.6834 Y143.7573
G01 X50.3724 Y145.3624
G01 X51.0897 Y146.9551
G01 X51.8350 Y148.5349
G01 X52.6081 Y150.1013
G01 X53.0214 Y150.9050
G01 X53.4488 Y151.7014
G01 X53.8901 Y152.4901
G01 X54.3453 Y153.2710
G01 X54.8141 Y154.0437
G01 X55.2965 Y154.8080
G01 X55.7923 Y155.5637
G01 X56.3013 Y156.3105
G01 X56.7018 Y156.8758
G01 X57.1173 Y157.4301
G01 X57.5477 Y157.9730
G01 X57.9925 Y158.5041
G01 X58.4515 Y159.0230
G01 X58.9243 Y159.5294
G01 X59.4105 Y160.0228
G01 X59.9099 Y160.5030
G01 X60.2850 Y160.8431
G01 X60.6737 Y161.1675
G01 X61.0754 Y161.4758
G01 X61.4893 Y161.7674
G01 X61.9149 Y162.0418
G01 X62.3513 Y162.2985
G01 X62.7978 Y162.5372
G01 X63.2538 Y162.7574
G01 X63.7211 Y162.9463
G01 X64.1999 Y163.1039
G01 X64.6881 Y163.2294
G01 X65.1836 Y163.3223
G01 X65.6841 Y163.3822
G01 X66.1875 Y163.4087
G01 X66.6915 Y163.4019
G01 X67.1940 Y163.3617
G01 X67.7499 Y163.3002
G01 X68.3016 Y163.2087
G01 X68.8476 Y163.0874
G01 X69.3862 Y162.9368
G01 X69.9158 Y162.7572
G01 X70.4350 Y162.5491
G01 X70.9421 Y162.3132
G01 X71.4357 Y162.0502
G01 X71.9143 Y161.7609
G01 X72.3765 Y161.4460
G01 X72.8210 Y161.1066
G01 X73.2464 Y160.7435
G01 X73.7226 Y160.2962
G01 X74.1818 Y159.8315
G01 X74.6235 Y159.3501
G01 X75.0469 Y158.8526
G01 X75.4515 Y158.3396
G01 X75.8368 Y157.8120
G01 X76.2022 Y157.2704
G01 X76.5472 Y156.7156
G01 X76.9742 Y155.9755
G01 X77.3824 Y155.2248
G01 X77.7716 Y154.4641
G01 X78.1415 Y153.6939
G01 X78.4921 Y152.9147
G01 X78.8229 Y152.1268
G01 X79.1338 Y151.3309
G01 X79.4246 Y150.5275
G01 X79.7738 Y149.4935
G01 X80.1055 Y148.4538
G01 X80.4198 Y147.4086
G01 X80.7165 Y146.3584
G01 X80.9956 Y145.3033
G01 X81.2569 Y144.2437
G01 X81.5005 Y143.1798
G01 X81.7261 Y142.1121
G01 X82.0947 Y140.1787
G01 X82.4345 Y138.2401
G01 X82.7454 Y136.2966
G01 X83.0273 Y134.3487
G01 X83.2803 Y132.3968
G01 X83.5041 Y130.4414
G01 X83.6988 Y128.4829
G01 X83.8644 Y126.5217
G01 X84.0725 Y123.6334
G01 X84.2496 Y120.7431
G01 X84.3959 Y117.8511
G01 X84.5112 Y114.9576
G01 X84.5955 Y112.0631
G01 X84.6489 Y109.1679
G01 X84.6713 Y106.2722
G01 X84.6627 Y103.3765
G01 X84.6572 Y101.1659
G01 X84.6333 Y98.9553
G01 X84.5911 Y96.7451
G01 X84.5307 Y94.5353
G01 X84.4520 Y92.3260
G01 X84.3549 Y90.1175
G01 X84.2397 Y87.9098
G01 X84.1061 Y85.7032
G01 X83.9543 Y83.4978
G01 X83.7843 Y81.2936
G01 X83.5960 Y79.0910
G01 X83.3895 Y76.8900
G01 X83.2003 Y75.0252
G01 X82.9902 Y73.1626
G01 X82.7591 Y71.3025
G01 X82.5071 Y69.4451
G01 X82.2342 Y67.5907
G01 X81.9405 Y65.7394
G01 X81.6260 Y63.8916
G01 X81.2907 Y62.0474
G01 X80.9347 Y60.2071
G01 X80.5580 Y58.3709
G01 X80.1607 Y56.5391
G01 X79.7428 Y54.7119
G01 X79.3101 Y52.9363
G01 X78.8490 Y51.1679
G01 X78.3594 Y49.4071
G01 X77.8417 Y47.6544
G01 X77.2958 Y45.9103
G01 X76.7220 Y44.1752
G01 X76.1203 Y42.4495
G01 X75.4910 Y40.7337
G01 X74.8342 Y39.0283
G01 X74.1501 Y37.3336
G01 X73.4388 Y35.6501
G01 X72.7006 Y33.9783
G01 X71.9356 Y32.3186
G01 X71.1440 Y30.6714
G01 X70.3260 Y29.0371
G01 X69.4819 Y27.4162
G01 X68.6118 Y25.8090
G01 X67.7160 Y24.2161
G01 X66.7947 Y22.6378
G01 X65.8482 Y21.0744
G01 X64.9739 Y19.6915
G01 X64.0809 Y18.3206
G01 X63.1693 Y16.9620
G01 X62.2394 Y15.6159
G01 X61.2912 Y14.2826
G01 X60.3249 Y12.9623
G01 X59.3408 Y11.6553
G01 X58.3390 Y10.3618
G01 X58.1827 Y10.0842
G01 X58.0568 Y9.7916
G01 X57.9626 Y9.4873
G01 X57.9011 Y9.1748
G01 X57.8732 Y8.8574
G01 X57.8791 Y8.5389
G01 X57.9187 Y8.2229
G01 X57.9916 Y7.9128
G01 X58.0969 Y7.6121
G01 X58.2336 Y7.3244
G01 X58.4000 Y7.0527
G01 X58.5942 Y6.8003
G01 X58.8141 Y6.5698
G01 X59.0573 Y6.3640
G01 X59.3208 Y6.1851
G01 X59.6019 Y6.0352
G01 X59.8973 Y5.9159
G01 X60.2036 Y5.8286
G01 X60.5175 Y5.7743
G01 X60.8354 Y5.7536
G01 X77.0738 Y5.5588
G00 Z0.0000
G01 X86.0731 Y5.4509
G00 Z-5.5000
G01 Z-6.0000 F300
G01 Z-9.0000
G01 X102.3115 Y5.2561 F3000
G01 X102.4682 Y5.2584
G01 X102.6245 Y5.2687
G01 X102.7801 Y5.2873
G01 X102.9344 Y5.3139
G01 X103.0872 Y5.3486
G01 X103.2380 Y5.3911
G01 X103.3863 Y5.4415
G01 X103.5318 Y5.4996
G01 X103.6741 Y5.5652
G01 X103.8128 Y5.6381
G01 X103.9474 Y5.7182
G01 X104.0777 Y5.8052
G01 X104.2033 Y5.8988
G01 X104.3238 Y5.9989
G01 X104.4389 Y6.1052
G01 X104.5484 Y6.2173
G01 X104.6518 Y6.3349
G01 X104.7489 Y6.4579
G01 X104.8395 Y6.5857
G01 X104.9233 Y6.7180
G01 X105.0001 Y6.8546
G01 X105.0696 Y6.9950
G01 X105.1317 Y7.1388
G01 X105.1863 Y7.2857
G01 X105.2330 Y7.4352
G01 X105.2720 Y7.5870
G01 X105.3029 Y7.7405
G01 X105.3258 Y7.8955
G01 X105.3405 Y8.0515
G01 X105.3471 Y8.2080
G01 X105.3455 Y8.3647
G01 X105.3358 Y8.5210
G01 X105.3179 Y8.6767
G01 X105.2918 Y8.8311
G01 X105.2578 Y8.9841
G01 X105.2158 Y9.1350
G01 X105.1660 Y9.2835
G01 X105.1085 Y9.4293
G01 X105.0435 Y9.5718
G01 X104.9711 Y9.7108
G01 X104.8916 Y9.8457
G01 X104.8052 Y9.9764
G01 X104.7120 Y10.1023
G01 X104.6124 Y10.2232
G01 X104.5066 Y10.3388
G01 X104.3949 Y10.4487
G01 X104.2777 Y10.5526
G01 X104.1551 Y10.6502
G01 X104.0277 Y10.7413
G01 X103.8956 Y10.8256
G01 X103.7594 Y10.9029
G01 X103.6193 Y10.9730
G01 X81.6023 Y21.2785
G01 X81.5778 Y21.2951
G01 X82.6827 Y22.7075
G01 X83.7649 Y24.1372
G01 X84.8242 Y25.5840
G01 X85.8604 Y27.0475
G01 X86.8732 Y28.5273
G01 X87.8623 Y30.0230
G01 X88.8275 Y31.5342
G01 X89.7686 Y33.0606
G01 X90.6852 Y34.6018
G01 X91.5773 Y36.1573
G01 X92.4444 Y37.7269
G01 X93.2865 Y39.3100
G01 X94.1033 Y40.9064
G01 X94.8947 Y42.5155
G01 X95.6603 Y44.1370
G01 X96.4000 Y45.7705
G01 X97.1137 Y47.4155
G01 X97.8011 Y49.0717
G01 X98.4621 Y50.7386
G01 X99.0965 Y52.4158
G01 X99.6682 Y54.0408
G01 X100.2172 Y55.6736
G01 X100.7435 Y57.3139
G01 X101.2470 Y58.9613
G01 X101.7276 Y60.6156
G01 X102.1852 Y62.2764
G01 X102.6196 Y63.9433
G01 X103.0309 Y65.6162
G01 X103.4189 Y67.2945
G01 X103.7836 Y68.9781
G01 X104.1249 Y70.6667
G01 X104.4427 Y72.3597
G01 X104.7370 Y74.0571
G01 X105.0077 Y75.7583
G01 X105.2547 Y77.4632
G01 X105.4781 Y79.1713
G01 X105.7202 Y81.2317
G01 X105.9367 Y83.2949
G01 X106.1276 Y85.3607
G01 X106.2929 Y87.4287
G01 X106.4325 Y89.4986
G01 X106.5465 Y91.5701
G01 X106.6347 Y93.6428
G01 X106.6972 Y95.7164
G01 X106.7340 Y97.7907
G01 X106.7450 Y99.8653
G01 X106.7303 Y101.9398
G01 X106.6899 Y104.0140
G01 X106.6435 Y106.0318
G01 X106.5700 Y108.0489
G01 X106.4693 Y110.0648
G01 X106.3416 Y112.0791
G01 X106.1867 Y114.0916
G01 X106.0048 Y116.1018
G01 X105.7959 Y118.1093
G01 X105.5600 Y120.1139
G01 X105.2972 Y122.1151
G01 X105.0074 Y124.1126
G01 X104.6908 Y126.1060
G01 X104.3475 Y128.0950
G01 X104.0181 Y129.8466
G01 X103.6579 Y131.5921
G01 X103.2669 Y133.3310
G01 X102.8454 Y135.0627
G01 X102.3934 Y136.7867
G01 X101.9110 Y138.5025
G01 X101.3985 Y140.2095
G01 X100.8560 Y141.9072
G01 X100.2836 Y143.5951
G01 X99.6815 Y145.2726
G01 X99.0499 Y146.9392
G01 X98.3890 Y148.5944
G01 X97.7991 Y149.9843
G01 X97.1819 Y151.3622
G01 X96.5377 Y152.7277
G01 X95.8666 Y154.0803
G01 X95.1691 Y155.4194
G01 X94.4453 Y156.7444
G01 X93.6955 Y158.0550
G01 X92.9201 Y159.3505
G01 X92.6153 Y159.8235
G00 Z0.0000
G01 X92.0151 Y160.7751
G01 X91.3914 Y161.7116
G01 X90.7446 Y162.6322
G01 X90.0752 Y163.5364
G01 X89.3834 Y164.4236
G01 X88.6697 Y165.2934
G01 X87.9346 Y166.1452
G01 X87.1786 Y166.9783
G00 Z-5.5000
G01 Z-6.0000 F300
G01 Z-9.0000
G01 X86.5965 Y167.6086 F3000
G01 X85.9970 Y168.2223
G01 X85.3808 Y168.8192
G01 X84.7481 Y169.3987
G01 X84.0995 Y169.9603
G01 X83.4356 Y170.5036
G01 X82.7568 Y171.0283
G01 X82.0637 Y171.5339
G01 X81.3568 Y172.0200
G01 X80.6366 Y172.4862
G01 X79.9037 Y172.9322
G01 X79.1586 Y173.3576
G01 X78.3507 Y173.7836
G01 X77.5273 Y174.1791
G01 X76.6897 Y174.5436
G01 X75.8391 Y174.8764
G01 X74.9767 Y175.1773
G01 X74.1036 Y175.4457
G01 X73.2210 Y175.6812
G01 X72.3303 Y175.8837
G01 X71.4327 Y176.0526
G01 X70.5293 Y176.1879
G01 X69.6215 Y176.2893
G01 X68.7106 Y176.3567
G01 X67.7978 Y176.3900
G01 X66.8844 Y176.3892
G01 X65.9716 Y176.3542
G01 X65.0608 Y176.2851
G01 X64.3993 Y176.1960
G01 X63.7409 Y176.0863
G01 X63.0863 Y175.9560
G01 X62.4361 Y175.8054
G01 X61.7908 Y175.6345
G01 X61.1513 Y175.4436
G01 X60.5180 Y175.2327
G01 X59.8916 Y175.0022
G01 X59.2728 Y174.7522
G01 X58.6620 Y174.4829
G01 X58.0600 Y174.1947
G01 X57.4672 Y173.8879
G01 X56.8844 Y173.5626
G01 X56.3120 Y173.2193
G01 X55.7506 Y172.8583
G01 X55.2008 Y172.4799
G01 X54.5736 Y172.0205
G01 X53.9574 Y171.5465
G01 X53.3524 Y171.0583
G01 X52.7590 Y170.5561
G01 X52.1774 Y170.0402
G01 X51.6081 Y169.5109
G01 X51.0513 Y168.9683
G01 X50.5073 Y168.4129
G01 X49.9765 Y167.8450
G01 X49.4591 Y167.2648
G01 X48.9553 Y166.6727
G01 X48.4656 Y166.0690
G01 X47.8273 Y165.2479
G01 X47.2040 Y164.4155
G01 X46.5959 Y163.5720
G01 X46.0030 Y162.7176
G01 X45.4257 Y161.8527
G01 X44.8642 Y160.9774
G01 X44.3185 Y160.0922
G01 X43.7889 Y159.1972
G01 X43.2756 Y158.2928
G01 X42.7787 Y157.3793
G01 X42.2984 Y156.4570
G01 X41.8348 Y155.5261
G01 X41.0730 Y153.9483
G01 X40.3440 Y152.3551
G01 X39.6480 Y150.7472
G01 X38.9855 Y149.1252
G01 X38.6682 Y153.2657
G01 X38.3747 Y171.3058
G01 X38.3674 Y171.4709
G01 X38.3511 Y171.6353
G01 X38.3258 Y171.7986
G01 X38.2915 Y171.9603
G01 X38.2483 Y172.1198
G01 X38.1965 Y172.2767
G01 X38.1361 Y172.4304
G01 X38.0673 Y172.5807
G01 X37.9903 Y172.7269
G01 X37.9054 Y172.8687
G01 X37.8128 Y173.0055
G01 X37.7129 Y173.1371
G01 X37.6058 Y173.2630
G01 X37.4920 Y173.3827
G01 X37.3717 Y173.4961
G01 X37.2454 Y173.6026
G01 X37.1135 Y173.7020
G01 X36.9762 Y173.7940
G01 X36.8341 Y173.8783
G01 X36.6876 Y173.9547
G01 X36.5370 Y174.0229
G01 X36.3830 Y174.0826
G01 X36.2259 Y174.1338
G01 X36.0662 Y174.1763
G01 X35.9044 Y174.2100
G01 X35.7411 Y174.2346
G01 X35.5766 Y174.2503
G01 X35.4115 Y174.2568
G01 X7.5110 Y174.5955
G01 X7.3480 Y174.5930
G01 X7.1854 Y174.5817
G01 X7.0237 Y174.5616
G01 X6.8633 Y174.5328
G01 X6.7047 Y174.4952
G01 X6.5483 Y174.4491
G01 X6.3947 Y174.3946
G01 X6.2443 Y174.3319
G01 X6.0976 Y174.2610
G01 X5.9548 Y174.1823
G01 X5.8166 Y174.0960
G01 X5.6833 Y174.0022
G01 X5.5552 Y173.9014
G01 X5.4329 Y173.7938
G01 X5.3165 Y173.6796
G01 X5.2065 Y173.5594
G01 X5.1032 Y173.4333
G01 X5.0069 Y173.3018
G01 X4.9179 Y173.1653
G01 X4.8364 Y173.0241
G01 X4.7628 Y172.8788
G01 X4.6971 Y172.7296
G01 X4.6396 Y172.5771
G01 X4.5905 Y172.4217
G01 X4.5499 Y172.2638
G01 X4.5179 Y172.1040
G01 X4.4947 Y171.9427
G01 X4.4802 Y171.7804
G01 X4.4746 Y171.6175
G01 X4.4779 Y171.4545
G01 X4.4900 Y171.2920
G01 X4.5109 Y171.1304
G01 X4.5405 Y170.9701
G01 X4.5788 Y170.8117
G01 X4.6257 Y170.6556
G01 X4.6809 Y170.5023
G01 X4.7444 Y170.3522
G01 X4.8160 Y170.2057
G01 X4.8954 Y170.0634
G01 X4.9824 Y169.9256
G01 X5.0768 Y169.7927
G01 X5.1782 Y169.6652
G01 X5.2865 Y169.5433
G01 X5.4011 Y169.4275
G01 X5.5220 Y169.3181
G01 X5.6485 Y169.2154
G01 X5.7805 Y169.1198
G01 X5.9174 Y169.0314
G01 X23.2657 Y158.4970
G01 X22.5028 Y95.1601
G00 Z0.0000
G01 X22.3944 Y86.1607
G00 Z-8.5000
G01 Z-9.0000 F300
G01 Z-12.0000
G01 X21.6316 Y22.8237 F3000
G01 X3.9527 Y11.9772
G01 X3.8176 Y11.8892
G01 X3.6875 Y11.7942
G01 X3.5626 Y11.6922
G01 X3.4434 Y11.5837
G01 X3.3302 Y11.4690
G01 X3.2233 Y11.3483
G01 X3.1231 Y11.2221
G01 X3.0298 Y11.0907
G01 X2.9436 Y10.9545
G01 X2.8649 Y10.8138
G01 X2.7939 Y10.6691
G01 X2.7308 Y10.5208
G01 X2.6757 Y10.3693
G01 X2.6288 Y10.2151
G01 X2.5903 Y10.0586
G01 X2.5602 Y9.9002
G01 X2.5387 Y9.7405
G01 X2.5258 Y9.5798
G01 X2.5216 Y9.4187
G01 X2.5260 Y9.2576
G01 X2.5390 Y9.0969
G01 X2.5607 Y8.9372
G01 X2.5909 Y8.7789
G01 X2.6296 Y8.6224
G01 X2.6766 Y8.4682
G01 X2.7318 Y8.3168
G01 X2.7951 Y8.1685
G01 X2.8663 Y8.0239
G01 X2.9451 Y7.8833
G01 X3.0313 Y7.7471
G01 X3.1248 Y7.6158
G01 X3.2252 Y7.4897
G01 X3.3321 Y7.3691
G01 X3.4455 Y7.2545
G01 X3.5648 Y7.1461
G01 X3.6897 Y7.0443
G01 X3.8200 Y6.9494
G01 X3.9551 Y6.8615
G01 X4.0948 Y6.7811
G01 X4.2386 Y6.7083
G01 X4.3861 Y6.6433
G01 X4.5369 Y6.5863
G01 X4.6905 Y6.5375
G01 X4.8465 Y6.4970
G01 X5.0045 Y6.4650
G01 X5.1640 Y6.4415
G01 X5.3245 Y6.4266
G01 X5.4855 Y6.4203
G01 X41.8912 Y5.9829
G01 X42.2157 Y5.9966
G01 X42.5368 Y6.0452
G01 X42.8508 Y6.1284
G01 X43.1540 Y6.2449
G01 X43.4427 Y6.3936
G01 X43.7138 Y6.5726
G01 X43.9638 Y6.7799
G01 X44.1900 Y7.0130
G01 X44.3897 Y7.2692
G01 X44.5605 Y7.5454
G01 X44.7005 Y7.8386
G01 X44.8079 Y8.1451
G01 X44.8816 Y8.4614
G01 X44.9206 Y8.7839
G01 X44.9246 Y9.1087
G01 X44.8934 Y9.4320
G01 X44.2981 Y13.4078
G01 X43.7369 Y17.3886
G01 X43.2098 Y21.3741
G01 X42.7169 Y25.3640
G01 X42.2583 Y29.3579
G01 X41.8339 Y33.3556
G01 X41.4439 Y37.3569
G01 X41.0881 Y41.3613
G01 X40.7667 Y45.3686
G01 X40.4797 Y49.3785
G01 X40.2270 Y53.3907
G01 X40.0088 Y57.4050
G01 X39.8250 Y61.4210
G01 X39.6756 Y65.4384
G01 X39.5607 Y69.4569
G01 X39.4802 Y73.4763
G01 X39.4342 Y77.4962
G01 X39.4227 Y81.5164
G01 X39.4456 Y85.5365
G01 X39.5030 Y89.5563
G01 X39.5637 Y91.8174
G01 X39.6516 Y94.0776
G01 X39.7667 Y96.3367
G01 X39.9091 Y98.5941
G01 X40.0786 Y100.8497
G01 X40.2753 Y103.1031
G01 X40.4992 Y105.3539
G01 X40.7501 Y107.6019
G01 X41.0281 Y109.8467
G01 X41.3332 Y112.0880
G01 X41.6652 Y114.3254
G01 X42.0242 Y116.5587
G01 X42.3286 Y118.3098
G01 X42.6566 Y120.0567
G01 X43.0080 Y121.7990
G01 X43.3828 Y123.5364
G01 X43.7809 Y125.2686
G01 X44.2022 Y126.9953
G01 X44.6467 Y128.7162
G01 X45.1143 Y130.4310
G01 X45.6049 Y132.1393
G01 X46.1184 Y133.8409
G01 X46.6547 Y135.5355
G01 X47.2138 Y137.2226
G01 X47.7878 Y138.8724
G01 X48.3909 Y140.5118
G01 X49.0228 Y142.1402
G01 X49.6834 Y143.7573
G01 X50.3724 Y145.3624
G01 X51.0897 Y146.9551
G01 X51.8350 Y148.5349
G01 X52.6081 Y150.1013
G01 X53.0214 Y150.9050
G01 X53.4488 Y151.7014
G01 X53.8901 Y152.4901
G01 X54.3453 Y153.2710
G01 X54.8141 Y154.0437
G01 X55.2965 Y154.8080
G01 X55.7923 Y155.5637
G01 X56.3013 Y156.3105
G01 X56.7018 Y156.8758
G01 X57.1173 Y157.4301
G01 X57.5477 Y157.9730
G01 X57.9925 Y158.5041
G01 X58.4515 Y159.0230
G01 X58.9243 Y159.5294
G01 X59.4105 Y160.0228
G01 X59.9099 Y160.5030
G01 X60.2850 Y160.8431
G01 X60.6737 Y161.1675
G01 X61.0754 Y161.4758
G01 X61.4893 Y161.7674
G01 X61.9149 Y162.0418
G01 X62.3513 Y162.2985
G01 X62.7978 Y162.5372
G01 X63.2538 Y162.7574
G01 X63.7211 Y162.9463
G01 X64.1999 Y163.1039
G01 X64.6881 Y163.2294
G01 X65.1836 Y163.3223
G01 X65.6841 Y163.3822
G01 X66.1875 Y163.4087
G01 X66.6915 Y163.4019
G01 X67.1940 Y163.3617
G01 X67.7499 Y163.3002
G01 X68.3016 Y163.2087
G01 X68.8476 Y163.0874
G01 X69.3862 Y162.9368
G01 X69.9158 Y162.7572
G01 X70.4350 Y162.5491
G01 X70.9421 Y162.3132
G01 X71.4357 Y162.0502
G01 X71.9143 Y161.7609
G01 X72.3765 Y161.4460
G01 X72.8210 Y161.1066
G01 X73.2464 Y160.7435
G01 X73.7226 Y160.2962
G01 X74.1818 Y159.8315
G01 X74.6235 Y159.3501
G01 X75.0469 Y158.8526
G01 X75.4515 Y158.3396
G01 X75.8368 Y157.8120
G01 X76.2022 Y157.2704
G01 X76.5472 Y156.7156
G01 X76.9742 Y155.9755
G01 X77.3824 Y155.2248
G01 X77.7716 Y154.4641
G01 X78.1415 Y153.6939
G01 X78.4921 Y152.9147
G01 X78.8229 Y152.1268
G01 X79.1338 Y151.3309
G01 X79.4246 Y150.5275
G01 X79.7738 Y149.4935
G01 X80.1055 Y148.4538
G01 X80.4198 Y147.4086
G01 X80.7165 Y146.3584
G01 X80.9956 Y145.3033
G01 X81.2569 Y144.2437
G01 X81.5005 Y143.1798
G01 X81.7261 Y142.1121
G01 X82.0947 Y140.1787
G01 X82.4345 Y138.2401
G01 X82.7454 Y136.2966
G01 X83.0273 Y134.3487
G01 X83.2803 Y132.3968
G01 X83.5041 Y130.4414
G01 X83.6988 Y128.4829
G01 X83.8644 Y126.5217
G01 X84.0725 Y123.6334
G01 X84.2496 Y120.7431
G01 X84.3959 Y117.8511
G01 X84.5112 Y114.9576
G01 X84.5955 Y112.0631
G01 X84.6489 Y109.1679
G01 X84.6713 Y106.2722
G01 X84.6627 Y103.3765
G01 X84.6572 Y101.1659
G01 X84.6333 Y98.9553
G01 X84.5911 Y96.7451
G01 X84.5307 Y94.5353
G01 X84.4520 Y92.3260
G01 X84.3549 Y90.1175
G01 X84.2397 Y87.9098
G01 X84.1061 Y85.7032
G01 X83.9543 Y83.4978
G01 X83.7843 Y81.2936
G01 X83.5960 Y79.0910
G01 X83.3895 Y76.8900
G01 X83.2003 Y75.0252
G01 X82.9902 Y73.1626
G01 X82.7591 Y71.3025
G01 X82.5071 Y69.4451
G01 X82.2342 Y67.5907
G01 X81.9405 Y65.7394
G01 X81.6260 Y63.8916
G01 X81.2907 Y62.0474
G01 X80.9347 Y60.2071
G01 X80.5580 Y58.3709
G01 X80.1607 Y56.5391
G01 X79.7428 Y54.7119
G01 X79.3101 Y52.9363
G01 X78.8490 Y51.1679
G01 X78.3594 Y49.4071
G01 X77.8417 Y47.6544
G01 X77.2958 Y45.9103
G01 X76.7220 Y44.1752
G01 X76.1203 Y42.4495
G01 X75.4910 Y40.7337
G01 X74.8342 Y39.0283
G01 X74.1501 Y37.3336
G01 X73.4388 Y35.6501
G01 X72.7006 Y33.9783
G01 X71.9356 Y32.3186
G01 X71.1440 Y30.6714
G01 X70.3260 Y29.0371
G01 X69.4819 Y27.4162
G01 X68.6118 Y25.8090
G01 X67.7160 Y24.2161
G01 X66.7947 Y22.6378
G01 X65.8482 Y21.0744
G01 X64.9739 Y19.6915
G01 X64.0809 Y18.3206
G01 X63.1693 Y16.9620
G01 X62.2394 Y15.6159
G01 X61.2912 Y14.2826
G01 X60.3249 Y12.9623
G01 X59.3408 Y11.6553
G01 X58.3390 Y10.3618
G01 X58.1827 Y10.0842
G01 X58.0568 Y9.7916
G01 X57.9626 Y9.4873
G01 X57.9011 Y9.1748
G01 X57.8732 Y8.8574
G01 X57.8791 Y8.5389
G01 X57.9187 Y8.2229
G01 X57.9916 Y7.9128
G01 X58.0969 Y7.6121
G01 X58.2336 Y7.3244
G01 X58.4000 Y7.0527
G01 X58.5942 Y6.8003
G01 X58.8141 Y6.5698
G01 X59.0573 Y6.3640
G01 X59.3208 Y6.1851
G01 X59.6019 Y6.0352
G01 X59.8973 Y5.9159
G01 X60.2036 Y5.8286
G01 X60.5175 Y5.7743
G01 X60.8354 Y5.7536
G01 X77.0738 Y5.5588
G00 Z0.0000
G01 X86.0731 Y5.4509
G00 Z-8.5000
G01 Z-9.0000 F300
G01 Z-12.0000
G01 X102.3115 Y5.2561 F3000
G01 X102.4682 Y5.2584
G01 X102.6245 Y5.2687
G01 X102.7801 Y5.2873
G01 X102.9344 Y5.3139
G01 X103.0872 Y5.3486
G01 X103.2380 Y5.3911
G01 X103.3863 Y5.4415
G01 X103.5318 Y5.4996
G01 X103.6741 Y5.5652
G01 X103.8128 Y5.6381
G01 X103.9474 Y5.7182
G01 X104.0777 Y5.8052
G01 X104.2033 Y5.8988
G01 X104.3238 Y5.9989
G01 X104.4389 Y6.1052
G01 X104.5484 Y6.2173
G01 X104.6518 Y6.3349
G01 X104.7489 Y6.4579
G01 X104.8395 Y6.5857
G01 X104.9233 Y6.7180
G01 X105.0001 Y6.8546
G01 X105.0696 Y6.9950
G01 X105.1317 Y7.1388
G01 X105.1863 Y7.2857
G01 X105.2330 Y7.4352
G01 X105.2720 Y7.5870
G01 X105.3029 Y7.7405
G01 X105.3258 Y7.8955
G01 X105.3405 Y8.0515
G01 X105.3471 Y8.2080
G01 X105.3455 Y8.3647
G01 X105.3358 Y8.5210
G01 X105.3179 Y8.6767
G01 X105.2918 Y8.8311
G01 X105.2578 Y8.9841
G01 X105.2158 Y9.1350
G01 X105.1660 Y9.2835
G01 X105.1085 Y9.4293
G01 X105.0435 Y9.5718
G01 X104.9711 Y9.7108
G01 X104.8916 Y9.8457
G01 X104.8052 Y9.9764
G01 X104.7120 Y10.1023
G01 X104.6124 Y10.2232
G01 X104.5066 Y10.3388
G01 X104.3949 Y10.4487
G01 X104.2777 Y10.5526
G01 X104.1551 Y10.6502
G01 X104.0277 Y10.7413
G01 X103.8956 Y10.8256
G01 X103.7594 Y10.9029
G01 X103.6193 Y10.9730
G01 X81.6023 Y21.2785
G01 X81.5778 Y21.2951
G01 X82.6827 Y22.7075
G01 X83.7649 Y24.1372
G01 X84.8242 Y25.5840
G01 X85.8604 Y27.0475
G01 X86.8732 Y28.5273
G01 X87.8623 Y30.0230
G01 X88.8275 Y31.5342
G01 X89.7686 Y33.0606
G01 X90.6852 Y34.6018
G01 X91.5773 Y36.1573
G01 X92.4444 Y37.7269
G01 X93.2865 Y39.3100
G01 X94.1033 Y40.9064
G01 X94.8947 Y42.5155
G01 X95.6603 Y44.1370
G01 X96.4000 Y45.7705
G01 X97.1137 Y47.4155
G01 X97.8011 Y49.0717
G01 X98.4621 Y50.7386
G01 X99.0965 Y52.4158
G01 X99.6682 Y54.0408
G01 X100.2172 Y55.6736
G01 X100.7435 Y57.3139
G01 X101.2470 Y58.9613
G01 X101.7276 Y60.6156
G01 X102.1852 Y62.2764
G01 X102.6196 Y63.9433
G01 X103.0309 Y65.6162
G01 X103.4189 Y67.2945
G01 X103.7836 Y68.9781
G01 X104.1249 Y70.6667
G01 X104.4427 Y72.3597
G01 X104.7370 Y74.0571
G01 X105.0077 Y75.7583
G01 X105.2547 Y77.4632
G01 X105.4781 Y79.1713
G01 X105.7202 Y81.2317
G01 X105.9367 Y83.2949
G01 X106.1276 Y85.3607
G01 X106.2929 Y87.4287
G01 X106.4325 Y89.4986
G01 X106.5465 Y91.5701
G01 X106.6347 Y93.6428
G01 X106.6972 Y95.7164
G01 X106.7340 Y97.7907
G01 X106.7450 Y99.8653
G01 X106.7303 Y101.9398
G01 X106.6899 Y104.0140
G01 X106.6435 Y106.0318
G01 X106.5700 Y108.0489
G01 X106.4693 Y110.0648
G01 X106.3416 Y112.0791
G01 X106.1867 Y114.0916
G01 X106.0048 Y116.1018
G01 X105.7959 Y118.1093
G01 X105.5600 Y120.1139
G01 X105.2972 Y122.1151
G01 X105.0074 Y124.1126
G01 X104.6908 Y126.1060
G01 X104.3475 Y128.0950
G01 X104.0181 Y129.8466
G01 X103.6579 Y131.5921
G01 X103.2669 Y133.3310
G01 X102.8454 Y135.0627
G01 X102.3934 Y136.7867
G01 X101.9110 Y138.5025
G01 X101.3985 Y140.2095
G01 X100.8560 Y141.9072
G01 X100.2836 Y143.5951
G01 X99.6815 Y145.2726
G01 X99.0499 Y146.9392
G01 X98.3890 Y148.5944
G01 X97.7991 Y149.9843
G01 X97.1819 Y151.3622
G01 X96.5377 Y152.7277
G01 X95.8666 Y154.0803
G01 X95.1691 Y155.4194
G01 X94.4453 Y156.7444
G01 X93.6955 Y158.0550
G01 X92.9201 Y159.3505
G01 X92.6153 Y159.8235
G00 Z0.0000
G01 X92.0151 Y160.7751
G01 X91.3914 Y161.7116
G01 X90.7446 Y162.6322
G01 X90.0752 Y163.5364
G01 X89.3834 Y164.4236
G01 X88.6697 Y165.2934
G01 X87.9346 Y166.1452
G01 X87.1786 Y166.9783
G00 Z-8.5000
G01 Z-9.0000 F300
G01 Z-12.0000
G01 X86.5965 Y167.6086 F3000
G01 X85.9970 Y168.2223
G01 X85.3808 Y168.8192
G01 X84.7481 Y169.3987
G01 X84.0995 Y169.9603
G01 X83.4356 Y170.5036
G01 X82.7568 Y171.0283
G01 X82.0637 Y171.5339
G01 X81.3568 Y172.0200
G01 X80.6366 Y172.4862
G01 X79.9037 Y172.9322
G01 X79.1586 Y173.3576
G01 X78.3507 Y173.7836
G01 X77.5273 Y174.1791
G01 X76.6897 Y174.5436
G01 X75.8391 Y174.8764
G01 X74.9767 Y175.1773
G01 X74.1036 Y175.4457
G01 X73.2210 Y175.6812
G01 X72.3303 Y175.8837
G01 X71.4327 Y176.0526
G01 X70.5293 Y176.1879
G01 X69.6215 Y176.2893
G01 X68.7106 Y176.3567
G01 X67.7978 Y176.3900
G01 X66.8844 Y176.3892
G01 X65.9716 Y176.3542
G01 X65.0608 Y176.2851
G01 X64.3993 Y176.1960
G01 X63.7409 Y176.0863
G01 X63.0863 Y175.9560
G01 X62.4361 Y175.8054
G01 X61.7908 Y175.6345
G01 X61.1513 Y175.4436
G01 X60.5180 Y175.2327
G01 X59.8916 Y175.0022
G01 X59.2728 Y174.7522
G01 X58.6620 Y174.4829
G01 X58.0600 Y174.1947
G01 X57.4672 Y173.8879
G01 X56.8844 Y173.5626
G01 X56.3120 Y173.2193
G01 X55.7506 Y172.8583
G01 X55.2008 Y172.4799
G01 X54.5736 Y172.0205
G01 X53.9574 Y171.5465
G01 X53.3524 Y171.0583
G01 X52.7590 Y170.5561
G01 X52.1774 Y170.0402
G01 X51.6081 Y169.5109
G01 X51.0513 Y168.9683
G01 X50.5073 Y168.4129
G01 X49.9765 Y167.8450
G01 X49.4591 Y167.2648
G01 X48.9553 Y166.6727
G01 X48.4656 Y166.0690
G01 X47.8273 Y165.2479
G01 X47.2040 Y164.4155
G01 X46.5959 Y163.5720
G01 X46.0030 Y162.7176
G01 X45.4257 Y161.8527
G01 X44.8642 Y160.9774
G01 X44.3185 Y160.0922
G01 X43.7889 Y159.1972
G01 X43.2756 Y158.2928
G01 X42.7787 Y157.3793
G01 X42.2984 Y156.4570
G01 X41.8348 Y155.5261
G01 X41.0730 Y153.9483
G01 X40.3440 Y152.3551
G01 X39.6480 Y150.7472
G01 X38.9855 Y149.1252
G01 X38.6682 Y153.2657
G01 X38.3747 Y171.3058
G01 X38.3674 Y171.4709
G01 X38.3511 Y171.6353
G01 X38.3258 Y171.7986
G01 X38.2915 Y171.9603
G01 X38.2483 Y172.1198
G01 X38.1965 Y172.2767
G01 X38.1361 Y172.4304
G01 X38.0673 Y172.5807
G01 X37.9903 Y172.7269
G01 X37.9054 Y172.8687
G01 X37.8128 Y173.0055
G01 X37.7129 Y173.1371
G01 X37.6058 Y173.2630
G01 X37.4920 Y173.3827
G01 X37.3717 Y173.4961
G01 X37.2454 Y173.6026
G01 X37.1135 Y173.7020
G01 X36.9762 Y173.7940
G01 X36.8341 Y173.8783
G01 X36.6876 Y173.9547
G01 X36.5370 Y174.0229
G01 X36.3830 Y174.0826
G01 X36.2259 Y174.1338
G01 X36.0662 Y174.1763
G01 X35.9044 Y174.2100
G01 X35.7411 Y174.2346
G01 X35.5766 Y174.2503
G01 X35.4115 Y174.2568
G01 X7.5110 Y174.5955
G01 X7.3480 Y174.5930
G01 X7.1854 Y174.5817
G01 X7.0237 Y174.5616
G01 X6.8633 Y174.5328
G01 X6.7047 Y174.4952
G01 X6.5483 Y174.4491
G01 X6.3947 Y174.3946
G01 X6.2443 Y174.3319
G01 X6.0976 Y174.2610
G01 X5.9548 Y174.1823
G01 X5.8166 Y174.0960
G01 X5.6833 Y174.0022
G01 X5.5552 Y173.9014
G01 X5.4329 Y173.7938
G01 X5.3165 Y173.6796
G01 X5.2065 Y173.5594
G01 X5.1032 Y173.4333
G01 X5.0069 Y173.3018
G01 X4.9179 Y173.1653
G01 X4.8364 Y173.0241
G01 X4.7628 Y172.8788
G01 X4.6971 Y172.7296
G01 X4.6396 Y172.5771
G01 X4.5905 Y172.4217
G01 X4.5499 Y172.2638
G01 X4.5179 Y172.1040
G01 X4.4947 Y171.9427
G01 X4.4802 Y171.7804
G01 X4.4746 Y171.6175
G01 X4.4779 Y171.4545
G01 X4.4900 Y171.2920
G01 X4.5109 Y171.1304
G01 X4.5405 Y170.9701
G01 X4.5788 Y170.8117
G01 X4.6257 Y170.6556
G01 X4.6809 Y170.5023
G01 X4.7444 Y170.3522
G01 X4.8160 Y170.2057
G01 X4.8954 Y170.0634
G01 X4.9824 Y169.9256
G01 X5.0768 Y169.7927
G01 X5.1782 Y169.6652
G01 X5.2865 Y169.5433
G01 X5.4011 Y169.4275
G01 X5.5220 Y169.3181
G01 X5.6485 Y169.2154
G01 X5.7805 Y169.1198
G01 X5.9174 Y169.0314
G01 X23.2657 Y158.4970
G01 X22.5028 Y95.1601
G00 Z0.0000
G01 X22.3944 Y86.1607
G00 Z-11.5000
G01 Z-12.0000 F300
G01 Z-15.0000
G01 X21.6316 Y22.8237 F3000
G01 X3.9527 Y11.9772
G01 X3.8176 Y11.8892
G01 X3.6875 Y11.7942
G01 X3.5626 Y11.6922
G01 X3.4434 Y11.5837
G01 X3.3302 Y11.4690
G01 X3.2233 Y11.3483
G01 X3.1231 Y11.2221
G01 X3.0298 Y11.0907
G01 X2.9436 Y10.9545
G01 X2.8649 Y10.8138
G01 X2.7939 Y10.6691
G01 X2.7308 Y10.5208
G01 X2.6757 Y10.3693
G01 X2.6288 Y10.2151
G01 X2.5903 Y10.0586
G01 X2.5602 Y9.9002
G01 X2.5387 Y9.7405
G01 X2.5258 Y9.5798
G01 X2.5216 Y9.4187
G01 X2.5260 Y9.2576
G01 X2.5390 Y9.0969
G01 X2.5607 Y8.9372
G01 X2.5909 Y8.7789
G01 X2.6296 Y8.6224
G01 X2.6766 Y8.4682
G01 X2.7318 Y8.3168
G01 X2.7951 Y8.1685
G01 X2.8663 Y8.0239
G01 X2.9451 Y7.8833
G01 X3.0313 Y7.7471
G01 X3.1248 Y7.6158
G01 X3.2252 Y7.4897
G01 X3.3321 Y7.3691
G01 X3.4455 Y7.2545
G01 X3.5648 Y7.1461
G01 X3.6897 Y7.0443
G01 X3.8200 Y6.9494
G01 X3.9551 Y6.8615
G01 X4.0948 Y6.7811
G01 X4.2386 Y6.7083
G01 X4.3861 Y6.6433
G01 X4.5369 Y6.5863
G01 X4.6905 Y6.5375
G01 X4.8465 Y6.4970
G01 X5.0045 Y6.4650
G01 X5.1640 Y6.4415
G01 X5.3245 Y6.4266
G01 X5.4855 Y6.4203
G01 X41.8912 Y5.9829
G01 X42.2157 Y5.9966
G01 X42.5368 Y6.0452
G01 X42.8508 Y6.1284
G01 X43.1540 Y6.2449
G01 X43.4427 Y6.3936
G01 X43.7138 Y6.5726
G01 X43.9638 Y6.7799
G01 X44.1900 Y7.0130
G01 X44.3897 Y7.2692
G01 X44.5605 Y7.5454
G01 X44.7005 Y7.8386
G01 X44.8079 Y8.1451
G01 X44.8816 Y8.4614
G01 X44.9206 Y8.7839
G01 X44.9246 Y9.1087
G01 X44.8934 Y9.4320
G01 X44.2981 Y13.4078
G01 X43.7369 Y17.3886
G01 X43.2098 Y21.3741
G01 X42.7169 Y25.3640
G01 X42.2583 Y29.3579
G01 X41.8339 Y33.3556
G01 X41.4439 Y37.3569
G01 X41.0881 Y41.3613
G01 X40.7667 Y45.3686
G01 X40.4797 Y49.3785
G01 X40.2270 Y53.3907
G01 X40.0088 Y57.4050
G01 X39.8250 Y61.4210
G01 X39.6756 Y65.4384
G01 X39.5607 Y69.4569
G01 X39.4802 Y73.4763
G01 X39.4342 Y77.4962
G01 X39.4227 Y81.5164
G01 X39.4456 Y85.5365
G01 X39.5030 Y89.5563
G01 X39.5637 Y91.8174
G01 X39.6516 Y94.0776
G01 X39.7667 Y96.3367
G01 X39.9091 Y98.5941
G01 X40.0786 Y100.8497
G01 X40.2753 Y103.1031
G01 X40.4992 Y105.3539
G01 X40.7501 Y107.6019
G01 X41.0281 Y109.8467
G01 X41.3332 Y112.0880
G01 X41.6652 Y114.3254
G01 X42.0242 Y116.5587
G01 X42.3286 Y118.3098
G01 X42.6566 Y120.0567
G01 X43.0080 Y121.7990
G01 X43.3828 Y123.5364
G01 X43.7809 Y125.2686
G01 X44.2022 Y126.9953
G01 X44.6467 Y128.7162
G01 X45.1143 Y130.4310
G01 X45.6049 Y132.1393
G01 X46.1184 Y133.8409
G01 X46.6547 Y135.5355
G01 X47.2138 Y137.2226
G01 X47.7878 Y138.8724
G01 X48.3909 Y140.5118
G01 X49.0228 Y142.1402
G01 X49.6834 Y143.7573
G01 X50.3724 Y145.3624
G01 X51.0897 Y146.9551
G01 X51.8350 Y148.5349
G01 X52.6081 Y150.1013
G01 X53.0214 Y150.9050
G01 X53.4488 Y151.7014
G01 X53.8901 Y152.4901
G01 X54.3453 Y153.2710
G01 X54.8141 Y154.0437
G01 X55.2965 Y154.8080
G01 X55.7923 Y155.5637
G01 X56.3013 Y156.3105
G01 X56.7018 Y156.8758
G01 X57.1173 Y157.4301
G01 X57.5477 Y157.9730
G01 X57.9925 Y158.5041
G01 X58.4515 Y159.0230
G01 X58.9243 Y159.5294
G01 X59.4105 Y160.0228
G01 X59.9099 Y160.5030
G01 X60.2850 Y160.8431
G01 X60.6737 Y161.1675
G01 X61.0754 Y161.4758
G01 X61.4893 Y161.7674
G01 X61.9149 Y162.0418
G01 X62.3513 Y162.2985
G01 X62.7978 Y162.5372
G01 X63.2538 Y162.7574
G01 X63.7211 Y162.9463
G01 X64.1999 Y163.1039
G01 X64.6881 Y163.2294
G01 X65.1836 Y163.3223
G01 X65.6841 Y163.3822
G01 X66.1875 Y163.4087
G01 X66.6915 Y163.4019
G01 X67.1940 Y163.3617
G01 X67.7499 Y163.3002
G01 X68.3016 Y163.2087
G01 X68.8476 Y163.0874
G01 X69.3862 Y162.9368
G01 X69.9158 Y162.7572
G01 X70.4350 Y162.5491
G01 X70.9421 Y162.3132
G01 X71.4357 Y162.0502
G01 X71.9143 Y161.7609
G01 X72.3765 Y161.4460
G01 X72.8210 Y161.1066
G01 X73.2464 Y160.7435
G01 X73.7226 Y160.2962
G01 X74.1818 Y159.8315
G01 X74.6235 Y159.3501
G01 X75.0469 Y158.8526
G01 X75.4515 Y158.3396
G01 X75.8368 Y157.8120
G01 X76.2022 Y157.2704
G01 X76.5472 Y156.7156
G01 X76.9742 Y155.9755
G01 X77.3824 Y155.2248
G01 X77.7716 Y154.4641
G01 X78.1415 Y153.6939
G01 X78.4921 Y152.9147
G01 X78.8229 Y152.1268
G01 X79.1338 Y151.3309
G01 X79.4246 Y150.5275
G01 X79.7738 Y149.4935
G01 X80.1055 Y148.4538
G01 X80.4198 Y147.4086
G01 X80.7165 Y146.3584
G01 X80.9956 Y145.3033
G01 X81.2569 Y144.2437
G01 X81.5005 Y143.1798
G01 X81.7261 Y142.1121
G01 X82.0947 Y140.1787
G01 X82.4345 Y138.2401
G01 X82.7454 Y136.2966
G01 X83.0273 Y134.3487
G01 X83.2803 Y132.3968
G01 X83.5041 Y130.4414
G01 X83.6988 Y128.4829
G01 X83.8644 Y126.5217
G01 X84.0725 Y123.6334
G01 X84.2496 Y120.7431
G01 X84.3959 Y117.8511
G01 X84.5112 Y114.9576
G01 X84.5955 Y112.0631
G01 X84.6489 Y109.1679
G01 X84.6713 Y106.2722
G01 X84.6627 Y103.3765
G01 X84.6572 Y101.1659
G01 X84.6333 Y98.9553
G01 X84.5911 Y96.7451
G01 X84.5307 Y94.5353
G01 X84.4520 Y92.3260
G01 X84.3549 Y90.1175
G01 X84.2397 Y87.9098
G01 X84.1061 Y85.7032
G01 X83.9543 Y83.4978
G01 X83.7843 Y81.2936
G01 X83.5960 Y79.0910
G01 X83.3895 Y76.8900
G01 X83.2003 Y75.0252
G01 X82.9902 Y73.1626
G01 X82.7591 Y71.3025
G01 X82.5071 Y69.4451
G01 X82.2342 Y67.5907
G01 X81.9405 Y65.7394
G01 X81.6260 Y63.8916
G01 X81.2907 Y62.0474
G01 X80.9347 Y60.2071
G01 X80.5580 Y58.3709
G01 X80.1607 Y56.5391
G01 X79.7428 Y54.7119
G01 X79.3101 Y52.9363
G01 X78.8490 Y51.1679
G01 X78.3594 Y49.4071
G01 X77.8417 Y47.6544
G01 X77.2958 Y45.9103
G01 X76.7220 Y44.1752
G01 X76.1203 Y42.4495
G01 X75.4910 Y40.7337
G01 X74.8342 Y39.0283
G01 X74.1501 Y37.3336
G01 X73.4388 Y35.6501
G01 X72.7006 Y33.9783
G01 X71.9356 Y32.3186
G01 X71.1440 Y30.6714
G01 X70.3260 Y29.0371
G01 X69.4819 Y27.4162
G01 X68.6118 Y25.8090
G01 X67.7160 Y24.2161
G01 X66.7947 Y22.6378
G01 X65.8482 Y21.0744
G01 X64.9739 Y19.6915
G01 X64.0809 Y18.3206
G01 X63.1693 Y16.9620
G01 X62.2394 Y15.6159
G01 X61.2912 Y14.2826
G01 X60.3249 Y12.9623
G01 X59.3408 Y11.6553
G01 X58.3390 Y10.3618
G01 X58.1827 Y10.0842
G01 X58.0568 Y9.7916
G01 X57.9626 Y9.4873
G01 X57.9011 Y9.1748
G01 X57.8732 Y8.8574
G01 X57.8791 Y8.5389
G01 X57.9187 Y8.2229
G01 X57.9916 Y7.9128
G01 X58.0969 Y7.6121
G01 X58.2336 Y7.3244
G01 X58.4000 Y7.0527
G01 X58.5942 Y6.8003
G01 X58.8141 Y6.5698
G01 X59.0573 Y6.3640
G01 X59.3208 Y6.1851
G01 X59.6019 Y6.0352
G01 X59.8973 Y5.9159
G01 X60.2036 Y5.8286
G01 X60.5175 Y5.7743
G01 X60.8354 Y5.7536
G01 X77.0738 Y5.5588
G00 Z0.0000
G01 X86.0731 Y5.4509
G00 Z-11.5000
G01 Z-12.0000 F300
G01 Z-15.0000
G01 X102.3115 Y5.2561 F3000
G01 X102.4682 Y5.2584
G01 X102.6245 Y5.2687
G01 X102.7801 Y5.2873
G01 X102.9344 Y5.3139
G01 X103.0872 Y5.3486
G01 X103.2380 Y5.3911
G01 X103.3863 Y5.4415
G01 X103.5318 Y5.4996
G01 X103.6741 Y5.5652
G01 X103.8128 Y5.6381
G01 X103.9474 Y5.7182
G01 X104.0777 Y5.8052
G01 X104.2033 Y5.8988
G01 X104.3238 Y5.9989
G01 X104.4389 Y6.1052
G01 X104.5484 Y6.2173
G01 X104.6518 Y6.3349
G01 X104.7489 Y6.4579
G01 X104.8395 Y6.5857
G01 X104.9233 Y6.7180
G01 X105.0001 Y6.8546
G01 X105.0696 Y6.9950
G01 X105.1317 Y7.1388
G01 X105.1863 Y7.2857
G01 X105.2330 Y7.4352
G01 X105.2720 Y7.5870
G01 X105.3029 Y7.7405
G01 X105.3258 Y7.8955
G01 X105.3405 Y8.0515
G01 X105.3471 Y8.2080
G01 X105.3455 Y8.3647
G01 X105.3358 Y8.5210
G01 X105.3179 Y8.6767
G01 X105.2918 Y8.8311
G01 X105.2578 Y8.9841
G01 X105.2158 Y9.1350
G01 X105.1660 Y9.2835
G01 X105.1085 Y9.4293
G01 X105.0435 Y9.5718
G01 X104.9711 Y9.7108
G01 X104.8916 Y9.8457
G01 X104.8052 Y9.9764
G01 X104.7120 Y10.1023
G01 X104.6124 Y10.2232
G01 X104.5066 Y10.3388
G01 X104.3949 Y10.4487
G01 X104.2777 Y10.5526
G01 X104.1551 Y10.6502
G01 X104.0277 Y10.7413
G01 X103.8956 Y10.8256
G01 X103.7594 Y10.9029
G01 X103.6193 Y10.9730
G01 X81.6023 Y21.2785
G01 X81.5778 Y21.2951
G01 X82.6827 Y22.7075
G01 X83.7649 Y24.1372
G01 X84.8242 Y25.5840
G01 X85.8604 Y27.0475
G01 X86.8732 Y28.5273
G01 X87.8623 Y30.0230
G01 X88.8275 Y31.5342
G01 X89.7686 Y33.0606
G01 X90.6852 Y34.6018
G01 X91.5773 Y36.1573
G01 X92.4444 Y37.7269
G01 X93.2865 Y39.3100
G01 X94.1033 Y40.9064
G01 X94.8947 Y42.5155
G01 X95.6603 Y44.1370
G01 X96.4000 Y45.7705
G01 X97.1137 Y47.4155
G01 X97.8011 Y49.0717
G01 X98.4621 Y50.7386
G01 X99.0965 Y52.4158
G01 X99.6682 Y54.0408
G01 X100.2172 Y55.6736
G01 X100.7435 Y57.3139
G01 X101.2470 Y58.9613
G01 X101.7276 Y60.6156
G01 X102.1852 Y62.2764
G01 X102.6196 Y63.9433
G01 X103.0309 Y65.6162
G01 X103.4189 Y67.2945
G01 X103.7836 Y68.9781
G01 X104.1249 Y70.6667
G01 X104.4427 Y72.3597
G01 X104.7370 Y74.0571
G01 X105.0077 Y75.7583
G01 X105.2547 Y77.4632
G01 X105.4781 Y79.1713
G01 X105.7202 Y81.2317
G01 X105.9367 Y83.2949
G01 X106.1276 Y85.3607
G01 X106.2929 Y87.4287
G01 X106.4325 Y89.4986
G01 X106.5465 Y91.5701
G01 X106.6347 Y93.6428
G01 X106.6972 Y95.7164
G01 X106.7340 Y97.7907
G01 X106.7450 Y99.8653
G01 X106.7303 Y101.9398
G01 X106.6899 Y104.0140
G01 X106.6435 Y106.0318
G01 X106.5700 Y108.0489
G01 X106.4693 Y110.0648
G01 X106.3416 Y112.0791
G01 X106.1867 Y114.0916
G01 X106.0048 Y116.1018
G01 X105.7959 Y118.1093
G01 X105.5600 Y120.1139
G01 X105.2972 Y122.1151
G01 X105.0074 Y124.1126
G01 X104.6908 Y126.1060
G01 X104.3475 Y128.0950
G01 X104.0181 Y129.8466
G01 X103.6579 Y131.5921
G01 X103.2669 Y133.3310
G01 X102.8454 Y135.0627
G01 X102.3934 Y136.7867
G01 X101.9110 Y138.5025
G01 X101.3985 Y140.2095
G01 X100.8560 Y141.9072
G01 X100.2836 Y143.5951
G01 X99.6815 Y145.2726
G01 X99.0499 Y146.9392
G01 X98.3890 Y148.5944
G01 X97.7991 Y149.9843
G01 X97.1819 Y151.3622
G01 X96.5377 Y152.7277
G01 X95.8666 Y154.0803
G01 X95.1691 Y155.4194
G01 X94.4453 Y156.7444
G01 X93.6955 Y158.0550
G01 X92.9201 Y159.3505
G01 X92.6153 Y159.8235
G00 Z0.0000
G01 X92.0151 Y160.7751
G01 X91.3914 Y161.7116
G01 X90.7446 Y162.6322
G01 X90.0752 Y163.5364
G01 X89.3834 Y164.4236
G01 X88.6697 Y165.2934
G01 X87.9346 Y166.1452
G01 X87.1786 Y166.9783
G00 Z-11.5000
G01 Z-12.0000 F300
G01 Z-15.0000
G01 X86.5965 Y167.6086 F3000
G01 X85.9970 Y168.2223
G01 X85.3808 Y168.8192
G01 X84.7481 Y169.3987
G01 X84.0995 Y169.9603
G01 X83.4356 Y170.5036
G01 X82.7568 Y171.0283
G01 X82.0637 Y171.5339
G01 X81.3568 Y172.0200
G01 X80.6366 Y172.4862
G01 X79.9037 Y172.9322
G01 X79.1586 Y173.3576
G01 X78.3507 Y173.7836
G01 X77.5273 Y174.1791
G01 X76.6897 Y174.5436
G01 X75.8391 Y174.8764
G01 X74.9767 Y175.1773
G01 X74.1036 Y175.4457
G01 X73.2210 Y175.6812
G01 X72.3303 Y175.8837
G01 X71.4327 Y176.0526
G01 X70.5293 Y176.1879
G01 X69.6215 Y176.2893
G01 X68.7106 Y176.3567
G01 X67.7978 Y176.3900
G01 X66.8844 Y176.3892
G01 X65.9716 Y176.3542
G01 X65.0608 Y176.2851
G01 X64.3993 Y176.1960
G01 X63.7409 Y176.0863
G01 X63.0863 Y175.9560
G01 X62.4361 Y175.8054
G01 X61.7908 Y175.6345
G01 X61.1513 Y175.4436
G01 X60.5180 Y175.2327
G01 X59.8916 Y175.0022
G01 X59.2728 Y174.7522
G01 X58.6620 Y174.4829
G01 X58.0600 Y174.1947
G01 X57.4672 Y173.8879
G01 X56.8844 Y173.5626
G01 X56.3120 Y173.2193
G01 X55.7506 Y172.8583
G01 X55.2008 Y172.4799
G01 X54.5736 Y172.0205
G01 X53.9574 Y171.5465
G01 X53.3524 Y171.0583
G01 X52.7590 Y170.5561
G01 X52.1774 Y170.0402
G01 X51.6081 Y169.5109
G01 X51.0513 Y168.9683
G01 X50.5073 Y168.4129
G01 X49.9765 Y167.8450
G01 X49.4591 Y167.2648
G01 X48.9553 Y166.6727
G01 X48.4656 Y166.0690
G01 X47.8273 Y165.2479
G01 X47.2040 Y164.4155
G01 X46.5959 Y163.5720
G01 X46.0030 Y162.7176
G01 X45.4257 Y161.8527
G01 X44.8642 Y160.9774
G01 X44.3185 Y160.0922
G01 X43.7889 Y159.1972
G01 X43.2756 Y158.2928
G01 X42.7787 Y157.3793
G01 X42.2984 Y156.4570
G01 X41.8348 Y155.5261
G01 X41.0730 Y153.9483
G01 X40.3440 Y152.3551
G01 X39.6480 Y150.7472
G01 X38.9855 Y149.1252
G01 X38.6682 Y153.2657
G01 X38.3747 Y171.3058
G01 X38.3674 Y171.4709
G01 X38.3511 Y171.6353
G01 X38.3258 Y171.7986
G01 X38.2915 Y171.9603
G01 X38.2483 Y172.1198
G01 X38.1965 Y172.2767
G01 X38.1361 Y172.4304
G01 X38.0673 Y172.5807
G01 X37.9903 Y172.7269
G01 X37.9054 Y172.8687
G01 X37.8128 Y173.0055
G01 X37.7129 Y173.1371
G01 X37.6058 Y173.2630
G01 X37.4920 Y173.3827
G01 X37.3717 Y173.4961
G01 X37.2454 Y173.6026
G01 X37.1135 Y173.7020
G01 X36.9762 Y173.7940
G01 X36.8341 Y173.8783
G01 X36.6876 Y173.9547
G01 X36.5370 Y174.0229
G01 X36.3830 Y174.0826
G01 X36.2259 Y174.1338
G01 X36.0662 Y174.1763
G01 X35.9044 Y174.2100
G01 X35.7411 Y174.2346
G01 X35.5766 Y174.2503
G01 X35.4115 Y174.2568
G01 X7.5110 Y174.5955
G01 X7.3480 Y174.5930
G01 X7.1854 Y174.5817
G01 X7.0237 Y174.5616
G01 X6.8633 Y174.5328
G01 X6.7047 Y174.4952
G01 X6.5483 Y174.4491
G01 X6.3947 Y174.3946
G01 X6.2443 Y174.3319
G01 X6.0976 Y174.2610
G01 X5.9548 Y174.1823
G01 X5.8166 Y174.0960
G01 X5.6833 Y174.0022
G01 X5.5552 Y173.9014
G01 X5.4329 Y173.7938
G01 X5.3165 Y173.6796
G01 X5.2065 Y173.5594
G01 X5.1032 Y173.4333
G01 X5.0069 Y173.3018
G01 X4.9179 Y173.1653
G01 X4.8364 Y173.0241
G01 X4.7628 Y172.8788
G01 X4.6971 Y172.7296
G01 X4.6396 Y172.5771
G01 X4.5905 Y172.4217
G01 X4.5499 Y172.2638
G01 X4.5179 Y172.1040
G01 X4.4947 Y171.9427
G01 X4.4802 Y171.7804
G01 X4.4746 Y171.6175
G01 X4.4779 Y171.4545
G01 X4.4900 Y171.2920
G01 X4.5109 Y171.1304
G01 X4.5405 Y170.9701
G01 X4.5788 Y170.8117
G01 X4.6257 Y170.6556
G01 X4.6809 Y170.5023
G01 X4.7444 Y170.3522
G01 X4.8160 Y170.2057
G01 X4.8954 Y170.0634
G01 X4.9824 Y169.9256
G01 X5.0768 Y169.7927
G01 X5.1782 Y169.6652
G01 X5.2865 Y169.5433
G01 X5.4011 Y169.4275
G01 X5.5220 Y169.3181
G01 X5.6485 Y169.2154
G01 X5.7805 Y169.1198
G01 X5.9174 Y169.0314
G01 X23.2657 Y158.4970
G01 X22.5028 Y95.1601
G00 Z0.0000
G01 X22.3944 Y86.1607
G00 Z-14.5000
G01 Z-15.0000 F300
G01 Z-18.0000
G01 X21.6316 Y22.8237 F3000
G01 X3.9527 Y11.9772
G01 X3.8176 Y11.8892
G01 X3.6875 Y11.7942
G01 X3.5626 Y11.6922
G01 X3.4434 Y11.5837
G01 X3.3302 Y11.4690
G01 X3.2233 Y11.3483
G01 X3.1231 Y11.2221
G01 X3.0298 Y11.0907
G01 X2.9436 Y10.9545
G01 X2.8649 Y10.8138
G01 X2.7939 Y10.6691
G01 X2.7308 Y10.5208
G01 X2.6757 Y10.3693
G01 X2.6288 Y10.2151
G01 X2.5903 Y10.0586
G01 X2.5602 Y9.9002
G01 X2.5387 Y9.7405
G01 X2.5258 Y9.5798
G01 X2.5216 Y9.4187
G01 X2.5260 Y9.2576
G01 X2.5390 Y9.0969
G01 X2.5607 Y8.9372
G01 X2.5909 Y8.7789
G01 X2.6296 Y8.6224
G01 X2.6766 Y8.4682
G01 X2.7318 Y8.3168
G01 X2.7951 Y8.1685
G01 X2.8663 Y8.0239
G01 X2.9451 Y7.8833
G01 X3.0313 Y7.7471
G01 X3.1248 Y7.6158
G01 X3.2252 Y7.4897
G01 X3.3321 Y7.3691
G01 X3.4455 Y7.2545
G01 X3.5648 Y7.1461
G01 X3.6897 Y7.0443
G01 X3.8200 Y6.9494
G01 X3.9551 Y6.8615
G01 X4.0948 Y6.7811
G01 X4.2386 Y6.7083
G01 X4.3861 Y6.6433
G01 X4.5369 Y6.5863
G01 X4.6905 Y6.5375
G01 X4.8465 Y6.4970
G01 X5.0045 Y6.4650
G01 X5.1640 Y6.4415
G01 X5.3245 Y6.4266
G01 X5.4855 Y6.4203
G01 X41.8912 Y5.9829
G01 X42.2157 Y5.9966
G01 X42.5368 Y6.0452
G01 X42.8508 Y6.1284
G01 X43.1540 Y6.2449
G01 X43.4427 Y6.3936
G01 X43.7138 Y6.5726
G01 X43.9638 Y6.7799
G01 X44.1900 Y7.0130
G01 X44.3897 Y7.2692
G01 X44.5605 Y7.5454
G01 X44.7005 Y7.8386
G01 X44.8079 Y8.1451
G01 X44.8816 Y8.4614
G01 X44.9206 Y8.7839
G01 X44.9246 Y9.1087
G01 X44.8934 Y9.4320
G01 X44.2981 Y13.4078
G01 X43.7369 Y17.3886
G01 X43.2098 Y21.3741
G01 X42.7169 Y25.3640
G01 X42.2583 Y29.3579
G01 X41.8339 Y33.3556
G01 X41.4439 Y37.3569
G01 X41.0881 Y41.3613
G01 X40.7667 Y45.3686
G01 X40.4797 Y49.3785
G01 X40.2270 Y53.3907
G01 X40.0088 Y57.4050
G01 X39.8250 Y61.4210
G01 X39.6756 Y65.4384
G01 X39.5607 Y69.4569
G01 X39.4802 Y73.4763
G01 X39.4342 Y77.4962
G01 X39.4227 Y81.5164
G01 X39.4456 Y85.5365
G01 X39.5030 Y89.5563
G01 X39.5637 Y91.8174
G01 X39.6516 Y94.0776
G01 X39.7667 Y96.3367
G01 X39.9091 Y98.5941
G01 X40.0786 Y100.8497
G01 X40.2753 Y103.1031
G01 X40.4992 Y105.3539
G01 X40.7501 Y107.6019
G01 X41.0281 Y109.8467
G01 X41.3332 Y112.0880
G01 X41.6652 Y114.3254
G01 X42.0242 Y116.5587
G01 X42.3286 Y118.3098
G01 X42.6566 Y120.0567
G01 X43.0080 Y121.7990
G01 X43.3828 Y123.5364
G01 X43.7809 Y125.2686
G01 X44.2022 Y126.9953
G01 X44.6467 Y128.7162
G01 X45.1143 Y130.4310
G01 X45.6049 Y132.1393
G01 X46.1184 Y133.8409
G01 X46.6547 Y135.5355
G01 X47.2138 Y137.2226
G01 X47.7878 Y138.8724
G01 X48.3909 Y140.5118
G01 X49.0228 Y142.1402
G01 X49.6834 Y143.7573
G01 X50.3724 Y145.3624
G01 X51.0897 Y146.9551
G01 X51.8350 Y148.5349
G01 X52.6081 Y150.1013
G01 X53.0214 Y150.9050
G01 X53.4488 Y151.7014
G01 X53.8901 Y152.4901
G01 X54.3453 Y153.2710
G01 X54.8141 Y154.0437
G01 X55.2965 Y154.8080
G01 X55.7923 Y155.5637
G01 X56.3013 Y156.3105
G01 X56.7018 Y156.8758
G01 X57.1173 Y157.4301
G01 X57.5477 Y157.9730
G01 X57.9925 Y158.5041
G01 X58.4515 Y159.0230
G01 X58.9243 Y159.5294
G01 X59.4105 Y160.0228
G01 X59.9099 Y160.5030
G01 X60.2850 Y160.8431
G01 X60.6737 Y161.1675
G01 X61.0754 Y161.4758
G01 X61.4893 Y161.7674
G01 X61.9149 Y162.0418
G01 X62.3513 Y162.2985
G01 X62.7978 Y162.5372
G01 X63.2538 Y162.7574
G01 X63.7211 Y162.9463
G01 X64.1999 Y163.1039
G01 X64.6881 Y163.2294
G01 X65.1836 Y163.3223
G01 X65.6841 Y163.3822
G01 X66.1875 Y163.4087
G01 X66.6915 Y163.4019
G01 X67.1940 Y163.3617
G01 X67.7499 Y163.3002
G01 X68.3016 Y163.2087
G01 X68.8476 Y163.0874
G01 X69.3862 Y162.9368
G01 X69.9158 Y162.7572
G01 X70.4350 Y162.5491
G01 X70.9421 Y162.3132
G01 X71.4357 Y162.0502
G01 X71.9143 Y161.7609
G01 X72.3765 Y161.4460
G01 X72.8210 Y161.1066
G01 X73.2464 Y160.7435
G01 X73.7226 Y160.2962
G01 X74.1818 Y159.8315
G01 X74.6235 Y159.3501
G01 X75.0469 Y158.8526
G01 X75.4515 Y158.3396
G01 X75.8368 Y157.8120
G01 X76.2022 Y157.2704
G01 X76.5472 Y156.7156
G01 X76.9742 Y155.9755
G01 X77.3824 Y155.2248
G01 X77.7716 Y154.4641
G01 X78.1415 Y153.6939
G01 X78.4921 Y152.9147
G01 X78.8229 Y152.1268
G01 X79.1338 Y151.3309
G01 X79.4246 Y150.5275
G01 X79.7738 Y149.4935
G01 X80.1055 Y148.4538
G01 X80.4198 Y147.4086
G01 X80.7165 Y146.3584
G01 X80.9956 Y145.3033
G01 X81.2569 Y144.2437
G01 X81.5005 Y143.1798
G01 X81.7261 Y142.1121
G01 X82.0947 Y140.1787
G01 X82.4345 Y138.2401
G01 X82.7454 Y136.2966
G01 X83.0273 Y134.3487
G01 X83.2803 Y132.3968
G01 X83.5041 Y130.4414
G01 X83.6988 Y128.4829
G01 X83.8644 Y126.5217
G01 X84.0725 Y123.6334
G01 X84.2496 Y120.7431
G01 X84.3959 Y117.8511
G01 X84.5112 Y114.9576
G01 X84.5955 Y112.0631
G01 X84.6489 Y109.1679
G01 X84.6713 Y106.2722
G01 X84.6627 Y103.3765
G01 X84.6572 Y101.1659
G01 X84.6333 Y98.9553
G01 X84.5911 Y96.7451
G01 X84.5307 Y94.5353
G01 X84.4520 Y92.3260
G01 X84.3549 Y90.1175
G01 X84.2397 Y87.9098
G01 X84.1061 Y85.7032
G01 X83.9543 Y83.4978
G01 X83.7843 Y81.2936
G01 X83.5960 Y79.0910
G01 X83.3895 Y76.8900
G01 X83.2003 Y75.0252
G01 X82.9902 Y73.1626
G01 X82.7591 Y71.3025
G01 X82.5071 Y69.4451
G01 X82.2342 Y67.5907
G01 X81.9405 Y65.7394
G01 X81.6260 Y63.8916
G01 X81.2907 Y62.0474
G01 X80.9347 Y60.2071
G01 X80.5580 Y58.3709
G01 X80.1607 Y56.5391
G01 X79.7428 Y54.7119
G01 X79.3101 Y52.9363
G01 X78.8490 Y51.1679
G01 X78.3594 Y49.4071
G01 X77.8417 Y47.6544
G01 X77.2958 Y45.9103
G01 X76.7220 Y44.1752
G01 X76.1203 Y42.4495
G01 X75.4910 Y40.7337
G01 X74.8342 Y39.0283
G01 X74.1501 Y37.3336
G01 X73.4388 Y35.6501
G01 X72.7006 Y33.9783
G01 X71.9356 Y32.3186
G01 X71.1440 Y30.6714
G01 X70.3260 Y29.0371
G01 X69.4819 Y27.4162
G01 X68.6118 Y25.8090
G01 X67.7160 Y24.2161
G01 X66.7947 Y22.6378
G01 X65.8482 Y21.0744
G01 X64.9739 Y19.6915
G01 X64.0809 Y18.3206
G01 X63.1693 Y16.9620
G01 X62.2394 Y15.6159
G01 X61.2912 Y14.2826
G01 X60.3249 Y12.9623
G01 X59.3408 Y11.6553
G01 X58.3390 Y10.3618
G01 X58.1827 Y10.0842
G01 X58.0568 Y9.7916
G01 X57.9626 Y9.4873
G01 X57.9011 Y9.1748
G01 X57.8732 Y8.8574
G01 X57.8791 Y8.5389
G01 X57.9187 Y8.2229
G01 X57.9916 Y7.9128
G01 X58.0969 Y7.6121
G01 X58.2336 Y7.3244
G01 X58.4000 Y7.0527
G01 X58.5942 Y6.8003
G01 X58.8141 Y6.5698
G01 X59.0573 Y6.3640
G01 X59.3208 Y6.1851
G01 X59.6019 Y6.0352
G01 X59.8973 Y5.9159
G01 X60.2036 Y5.8286
G01 X60.5175 Y5.7743
G01 X60.8354 Y5.7536
G01 X77.0738 Y5.5588
G00 Z0.0000
G01 X86.0731 Y5.4509
G00 Z-14.5000
G01 Z-15.0000 F300
G01 Z-18.0000
G01 X102.3115 Y5.2561 F3000
G01 X102.4682 Y5.2584
G01 X102.6245 Y5.2687
G01 X102.7801 Y5.2873
G01 X102.9344 Y5.3139
G01 X103.0872 Y5.3486
G01 X103.2380 Y5.3911
G01 X103.3863 Y5.4415
G01 X103.5318 Y5.4996
G01 X103.6741 Y5.5652
G01 X103.8128 Y5.6381
G01 X103.9474 Y5.7182
G01 X104.0777 Y5.8052
G01 X104.2033 Y5.8988
G01 X104.3238 Y5.9989
G01 X104.4389 Y6.1052
G01 X104.5484 Y6.2173
G01 X104.6518 Y6.3349
G01 X104.7489 Y6.4579
G01 X104.8395 Y6.5857
G01 X104.9233 Y6.7180
G01 X105.0001 Y6.8546
G01 X105.0696 Y6.9950
G01 X105.1317 Y7.1388
G01 X105.1863 Y7.2857
G01 X105.2330 Y7.4352
G01 X105.2720 Y7.5870
G01 X105.3029 Y7.7405
G01 X105.3258 Y7.8955
G01 X105.3405 Y8.0515
G01 X105.3471 Y8.2080
G01 X105.3455 Y8.3647
G01 X105.3358 Y8.5210
G01 X105.3179 Y8.6767
G01 X105.2918 Y8.8311
G01 X105.2578 Y8.9841
G01 X105.2158 Y9.1350
G01 X105.1660 Y9.2835
G01 X105.1085 Y9.4293
G01 X105.0435 Y9.5718
G01 X104.9711 Y9.7108
G01 X104.8916 Y9.8457
G01 X104.8052 Y9.9764
G01 X104.7120 Y10.1023
G01 X104.6124 Y10.2232
G01 X104.5066 Y10.3388
G01 X104.3949 Y10.4487
G01 X104.2777 Y10.5526
G01 X104.1551 Y10.6502
G01 X104.0277 Y10.7413
G01 X103.8956 Y10.8256
G01 X103.7594 Y10.9029
G01 X103.6193 Y10.9730
G01 X81.6023 Y21.2785
G01 X81.5778 Y21.2951
G01 X82.6827 Y22.7075
G01 X83.7649 Y24.1372
G01 X84.8242 Y25.5840
G01 X85.8604 Y27.0475
G01 X86.8732 Y28.5273
G01 X87.8623 Y30.0230
G01 X88.8275 Y31.5342
G01 X89.7686 Y33.0606
G01 X90.6852 Y34.6018
G01 X91.5773 Y36.1573
G01 X92.4444 Y37.7269
G01 X93.2865 Y39.3100
G01 X94.1033 Y40.9064
G01 X94.8947 Y42.5155
G01 X95.6603 Y44.1370
G01 X96.4000 Y45.7705
G01 X97.1137 Y47.4155
G01 X97.8011 Y49.0717
G01 X98.4621 Y50.7386
G01 X99.0965 Y52.4158
G01 X99.6682 Y54.0408
G01 X100.2172 Y55.6736
G01 X100.7435 Y57.3139
G01 X101.2470 Y58.9613
G01 X101.7276 Y60.6156
G01 X102.1852 Y62.2764
G01 X102.6196 Y63.9433
G01 X103.0309 Y65.6162
G01 X103.4189 Y67.2945
G01 X103.7836 Y68.9781
G01 X104.1249 Y70.6667
G01 X104.4427 Y72.3597
G01 X104.7370 Y74.0571
G01 X105.0077 Y75.7583
G01 X105.2547 Y77.4632
G01 X105.4781 Y79.1713
G01 X105.7202 Y81.2317
G01 X105.9367 Y83.2949
G01 X106.1276 Y85.3607
G01 X106.2929 Y87.4287
G01 X106.4325 Y89.4986
G01 X106.5465 Y91.5701
G01 X106.6347 Y93.6428
G01 X106.6972 Y95.7164
G01 X106.7340 Y97.7907
G01 X106.7450 Y99.8653
G01 X106.7303 Y101.9398
G01 X106.6899 Y104.0140
G01 X106.6435 Y106.0318
G01 X106.5700 Y108.0489
G01 X106.4693 Y110.0648
G01 X106.3416 Y112.0791
G01 X106.1867 Y114.0916
G01 X106.0048 Y116.1018
G01 X105.7959 Y118.1093
G01 X105.5600 Y120.1139
G01 X105.2972 Y122.1151
G01 X105.0074 Y124.1126
G01 X104.6908 Y126.1060
G01 X104.3475 Y128.0950
G01 X104.0181 Y129.8466
G01 X103.6579 Y131.5921
G01 X103.2669 Y133.3310
G01 X102.8454 Y135.0627
G01 X102.3934 Y136.7867
G01 X101.9110 Y138.5025
G01 X101.3985 Y140.2095
G01 X100.8560 Y141.9072
G01 X100.2836 Y143.5951
G01 X99.6815 Y145.2726
G01 X99.0499 Y146.9392
G01 X98.3890 Y148.5944
G01 X97.7991 Y149.9843
G01 X97.1819 Y151.3622
G01 X96.5377 Y152.7277
G01 X95.8666 Y154.0803
G01 X95.1691 Y155.4194
G01 X94.4453 Y156.7444
G01 X93.6955 Y158.0550
G01 X92.9201 Y159.3505
G01 X92.6153 Y159.8235
G00 Z0.0000
G01 X92.0151 Y160.7751
G01 X91.3914 Y161.7116
G01 X90.7446 Y162.6322
G01 X90.0752 Y163.5364
G01 X89.3834 Y164.4236
G01 X88.6697 Y165.2934
G01 X87.9346 Y166.1452
G01 X87.1786 Y166.9783
G00 Z-14.5000
G01 Z-15.0000 F300
G01 Z-18.0000
G01 X86.5965 Y167.6086 F3000
G01 X85.9970 Y168.2223
G01 X85.3808 Y168.8192
G01 X84.7481 Y169.3987
G01 X84.0995 Y169.9603
G01 X83.4356 Y170.5036
G01 X82.7568 Y171.0283
G01 X82.0637 Y171.5339
G01 X81.3568 Y172.0200
G01 X80.6366 Y172.4862
G01 X79.9037 Y172.9322
G01 X79.1586 Y173.3576
G01 X78.3507 Y173.7836
G01 X77.5273 Y174.1791
G01 X76.6897 Y174.5436
G01 X75.8391 Y174.8764
G01 X74.9767 Y175.1773
G01 X74.1036 Y175.4457
G01 X73.2210 Y175.6812
G01 X72.3303 Y175.8837
G01 X71.4327 Y176.0526
G01 X70.5293 Y176.1879
G01 X69.6215 Y176.2893
G01 X68.7106 Y176.3567
G01 X67.7978 Y176.3900
G01 X66.8844 Y176.3892
G01 X65.9716 Y176.3542
G01 X65.0608 Y176.2851
G01 X64.3993 Y176.1960
G01 X63.7409 Y176.0863
G01 X63.0863 Y175.9560
G01 X62.4361 Y175.8054
G01 X61.7908 Y175.6345
G01 X61.1513 Y175.4436
G01 X60.5180 Y175.2327
G01 X59.8916 Y175.0022
G01 X59.2728 Y174.7522
G01 X58.6620 Y174.4829
G01 X58.0600 Y174.1947
G01 X57.4672 Y173.8879
G01 X56.8844 Y173.5626
G01 X56.3120 Y173.2193
G01 X55.7506 Y172.8583
G01 X55.2008 Y172.4799
G01 X54.5736 Y172.0205
G01 X53.9574 Y171.5465
G01 X53.3524 Y171.0583
G01 X52.7590 Y170.5561
G01 X52.1774 Y170.0402
G01 X51.6081 Y169.5109
G01 X51.0513 Y168.9683
G01 X50.5073 Y168.4129
G01 X49.9765 Y167.8450
G01 X49.4591 Y167.2648
G01 X48.9553 Y166.6727
G01 X48.4656 Y166.0690
G01 X47.8273 Y165.2479
G01 X47.2040 Y164.4155
G01 X46.5959 Y163.5720
G01 X46.0030 Y162.7176
G01 X45.4257 Y161.8527
G01 X44.8642 Y160.9774
G01 X44.3185 Y160.0922
G01 X43.7889 Y159.1972
G01 X43.2756 Y158.2928
G01 X42.7787 Y157.3793
G01 X42.2984 Y156.4570
G01 X41.8348 Y155.5261
G01 X41.0730 Y153.9483
G01 X40.3440 Y152.3551
G01 X39.6480 Y150.7472
G01 X38.9855 Y149.1252
G01 X38.6682 Y153.2657
G01 X38.3747 Y171.3058
G01 X38.3674 Y171.4709
G01 X38.3511 Y171.6353
G01 X38.3258 Y171.7986
G01 X38.2915 Y171.9603
G01 X38.2483 Y172.1198
G01 X38.1965 Y172.2767
G01 X38.1361 Y172.4304
G01 X38.0673 Y172.5807
G01 X37.9903 Y172.7269
G01 X37.9054 Y172.8687
G01 X37.8128 Y173.0055
G01 X37.7129 Y173.1371
G01 X37.6058 Y173.2630
G01 X37.4920 Y173.3827
G01 X37.3717 Y173.4961
G01 X37.2454 Y173.6026
G01 X37.1135 Y173.7020
G01 X36.9762 Y173.7940
G01 X36.8341 Y173.8783
G01 X36.6876 Y173.9547
G01 X36.5370 Y174.0229
G01 X36.3830 Y174.0826
G01 X36.2259 Y174.1338
G01 X36.0662 Y174.1763
G01 X35.9044 Y174.2100
G01 X35.7411 Y174.2346
G01 X35.5766 Y174.2503
G01 X35.4115 Y174.2568
G01 X7.5110 Y174.5955
G01 X7.3480 Y174.5930
G01 X7.1854 Y174.5817
G01 X7.0237 Y174.5616
G01 X6.8633 Y174.5328
G01 X6.7047 Y174.4952
G01 X6.5483 Y174.4491
G01 X6.3947 Y174.3946
G01 X6.2443 Y174.3319
G01 X6.0976 Y174.2610
G01 X5.9548 Y174.1823
G01 X5.8166 Y174.0960
G01 X5.6833 Y174.0022
G01 X5.5552 Y173.9014
G01 X5.4329 Y173.7938
G01 X5.3165 Y173.6796
G01 X5.2065 Y173.5594
G01 X5.1032 Y173.4333
G01 X5.0069 Y173.3018
G01 X4.9179 Y173.1653
G01 X4.8364 Y173.0241
G01 X4.7628 Y172.8788
G01 X4.6971 Y172.7296
G01 X4.6396 Y172.5771
G01 X4.5905 Y172.4217
G01 X4.5499 Y172.2638
G01 X4.5179 Y172.1040
G01 X4.4947 Y171.9427
G01 X4.4802 Y171.7804
G01 X4.4746 Y171.6175
G01 X4.4779 Y171.4545
G01 X4.4900 Y171.2920
G01 X4.5109 Y171.1304
G01 X4.5405 Y170.9701
G01 X4.5788 Y170.8117
G01 X4.6257 Y170.6556
G01 X4.6809 Y170.5023
G01 X4.7444 Y170.3522
G01 X4.8160 Y170.2057
G01 X4.8954 Y170.0634
G01 X4.9824 Y169.9256
G01 X5.0768 Y169.7927
G01 X5.1782 Y169.6652
G01 X5.2865 Y169.5433
G01 X5.4011 Y169.4275
G01 X5.5220 Y169.3181
G01 X5.6485 Y169.2154
G01 X5.7805 Y169.1198
G01 X5.9174 Y169.0314
G01 X23.2657 Y158.4970
G01 X22.5028 Y95.1601
G00 Z0.0000
G01 X22.3944 Y86.1607
G00 Z-17.5000
G01 Z-18.0000 F300
G01 Z-21.0000
G01 X21.6316 Y22.8237 F3000
G01 X3.9527 Y11.9772
G01 X3.8176 Y11.8892
G01 X3.6875 Y11.7942
G01 X3.5626 Y11.6922
G01 X3.4434 Y11.5837
G01 X3.3302 Y11.4690
G01 X3.2233 Y11.3483
G01 X3.1231 Y11.2221
G01 X3.0298 Y11.0907
G01 X2.9436 Y10.9545
G01 X2.8649 Y10.8138
G01 X2.7939 Y10.6691
G01 X2.7308 Y10.5208
G01 X2.6757 Y10.3693
G01 X2.6288 Y10.2151
G01 X2.5903 Y10.0586
G01 X2.5602 Y9.9002
G01 X2.5387 Y9.7405
G01 X2.5258 Y9.5798
G01 X2.5216 Y9.4187
G01 X2.5260 Y9.2576
G01 X2.5390 Y9.0969
G01 X2.5607 Y8.9372
G01 X2.5909 Y8.7789
G01 X2.6296 Y8.6224
G01 X2.6766 Y8.4682
G01 X2.7318 Y8.3168
G01 X2.7951 Y8.1685
G01 X2.8663 Y8.0239
G01 X2.9451 Y7.8833
G01 X3.0313 Y7.7471
G01 X3.1248 Y7.6158
G01 X3.2252 Y7.4897
G01 X3.3321 Y7.3691
G01 X3.4455 Y7.2545
G01 X3.5648 Y7.1461
G01 X3.6897 Y7.0443
G01 X3.8200 Y6.9494
G01 X3.9551 Y6.8615
G01 X4.0948 Y6.7811
G01 X4.2386 Y6.7083
G01 X4.3861 Y6.6433
G01 X4.5369 Y6.5863
G01 X4.6905 Y6.5375
G01 X4.8465 Y6.4970
G01 X5.0045 Y6.4650
G01 X5.1640 Y6.4415
G01 X5.3245 Y6.4266
G01 X5.4855 Y6.4203
G01 X41.8912 Y5.9829
G01 X42.2157 Y5.9966
G01 X42.5368 Y6.0452
G01 X42.8508 Y6.1284
G01 X43.1540 Y6.2449
G01 X43.4427 Y6.3936
G01 X43.7138 Y6.5726
G01 X43.9638 Y6.7799
G01 X44.1900 Y7.0130
G01 X44.3897 Y7.2692
G01 X44.5605 Y7.5454
G01 X44.7005 Y7.8386
G01 X44.8079 Y8.1451
G01 X44.8816 Y8.4614
G01 X44.9206 Y8.7839
G01 X44.9246 Y9.1087
G01 X44.8934 Y9.4320
G01 X44.2981 Y13.4078
G01 X43.7369 Y17.3886
G01 X43.2098 Y21.3741
G01 X42.7169 Y25.3640
G01 X42.2583 Y29.3579
G01 X41.8339 Y33.3556
G01 X41.4439 Y37.3569
G01 X41.0881 Y41.3613
G01 X40.7667 Y45.3686
G01 X40.4797 Y49.3785
G01 X40.2270 Y53.3907
G01 X40.0088 Y57.4050
G01 X39.8250 Y61.4210
G01 X39.6756 Y65.4384
G01 X39.5607 Y69.4569
G01 X39.4802 Y73.4763
G01 X39.4342 Y77.4962
G01 X39.4227 Y81.5164
G01 X39.4456 Y85.5365
G01 X39.5030 Y89.5563
G01 X39.5637 Y91.8174
G01 X39.6516 Y94.0776
G01 X39.7667 Y96.3367
G01 X39.9091 Y98.5941
G01 X40.0786 Y100.8497
G01 X40.2753 Y103.1031
G01 X40.4992 Y105.3539
G01 X40.7501 Y107.6019
G01 X41.0281 Y109.8467
G01 X41.3332 Y112.0880
G01 X41.6652 Y114.3254
G01 X42.0242 Y116.5587
G01 X42.3286 Y118.3098
G01 X42.6566 Y120.0567
G01 X43.0080 Y121.7990
G01 X43.3828 Y123.5364
G01 X43.7809 Y125.2686
G01 X44.2022 Y126.9953
G01 X44.6467 Y128.7162
G01 X45.1143 Y130.4310
G01 X45.6049 Y132.1393
G01 X46.1184 Y133.8409
G01 X46.6547 Y135.5355
G01 X47.2138 Y137.2226
G01 X47.7878 Y138.8724
G01 X48.3909 Y140.5118
G01 X49.0228 Y142.1402
G01 X49.6834 Y143.7573
G01 X50.3724 Y145.3624
G01 X51.0897 Y146.9551
G01 X51.8350 Y148.5349
G01 X52.6081 Y150.1013
G01 X53.0214 Y150.9050
G01 X53.4488 Y151.7014
G01 X53.8901 Y152.4901
G01 X54.3453 Y153.2710
G01 X54.8141 Y154.0437
G01 X55.2965 Y154.8080
G01 X55.7923 Y155.5637
G01 X56.3013 Y156.3105
G01 X56.7018 Y156.8758
G01 X57.1173 Y157.4301
G01 X57.5477 Y157.9730
G01 X57.9925 Y158.5041
G01 X58.4515 Y159.0230
G01 X58.9243 Y159.5294
G01 X59.4105 Y160.0228
G01 X59.9099 Y160.5030
G01 X60.2850 Y160.8431
G01 X60.6737 Y161.1675
G01 X61.0754 Y161.4758
G01 X61.4893 Y161.7674
G01 X61.9149 Y162.0418
G01 X62.3513 Y162.2985
G01 X62.7978 Y162.5372
G01 X63.2538 Y162.7574
G01 X63.7211 Y162.9463
G01 X64.1999 Y163.1039
G01 X64.6881 Y163.2294
G01 X65.1836 Y163.3223
G01 X65.6841 Y163.3822
G01 X66.1875 Y163.4087
G01 X66.6915 Y163.4019
G01 X67.1940 Y163.3617
G01 X67.7499 Y163.3002
G01 X68.3016 Y163.2087
G01 X68.8476 Y163.0874
G01 X69.3862 Y162.9368
G01 X69.9158 Y162.7572
G01 X70.4350 Y162.5491
G01 X70.9421 Y162.3132
G01 X71.4357 Y162.0502
G01 X71.9143 Y161.7609
G01 X72.3765 Y161.4460
G01 X72.8210 Y161.1066
G01 X73.2464 Y160.7435
G01 X73.7226 Y160.2962
G01 X74.1818 Y159.8315
G01 X74.6235 Y159.3501
G01 X75.0469 Y158.8526
G01 X75.4515 Y158.3396
G01 X75.8368 Y157.8120
G01 X76.2022 Y157.2704
G01 X76.5472 Y156.7156
G01 X76.9742 Y155.9755
G01 X77.3824 Y155.2248
G01 X77.7716 Y154.4641
G01 X78.1415 Y153.6939
G01 X78.4921 Y152.9147
G01 X78.8229 Y152.1268
G01 X79.1338 Y151.3309
G01 X79.4246 Y150.5275
G01 X79.7738 Y149.4935
G01 X80.1055 Y148.4538
G01 X80.4198 Y147.4086
G01 X80.7165 Y146.3584
G01 X80.9956 Y145.3033
G01 X81.2569 Y144.2437
G01 X81.5005 Y143.1798
G01 X81.7261 Y142.1121
G01 X82.0947 Y140.1787
G01 X82.4345 Y138.2401
G01 X82.7454 Y136.2966
G01 X83.0273 Y134.3487
G01 X83.2803 Y132.3968
G01 X83.5041 Y130.4414
G01 X83.6988 Y128.4829
G01 X83.8644 Y126.5217
G01 X84.0725 Y123.6334
G01 X84.2496 Y120.7431
G01 X84.3959 Y117.8511
G01 X84.5112 Y114.9576
G01 X84.5955 Y112.0631
G01 X84.6489 Y109.1679
G01 X84.6713 Y106.2722
G01 X84.6627 Y103.3765
G01 X84.6572 Y101.1659
G01 X84.6333 Y98.9553
G01 X84.5911 Y96.7451
G01 X84.5307 Y94.5353
G01 X84.4520 Y92.3260
G01 X84.3549 Y90.1175
G01 X84.2397 Y87.9098
G01 X84.1061 Y85.7032
G01 X83.9543 Y83.4978
G01 X83.7843 Y81.2936
G01 X83.5960 Y79.0910
G01 X83.3895 Y76.8900
G01 X83.2003 Y75.0252
G01 X82.9902 Y73.1626
G01 X82.7591 Y71.3025
G01 X82.5071 Y69.4451
G01 X82.2342 Y67.5907
G01 X81.9405 Y65.7394
G01 X81.6260 Y63.8916
G01 X81.2907 Y62.0474
G01 X80.9347 Y60.2071
G01 X80.5580 Y58.3709
G01 X80.1607 Y56.5391
G01 X79.7428 Y54.7119
G01 X79.3101 Y52.9363
G01 X78.8490 Y51.1679
G01 X78.3594 Y49.4071
G01 X77.8417 Y47.6544
G01 X77.2958 Y45.9103
G01 X76.7220 Y44.1752
G01 X76.1203 Y42.4495
G01 X75.4910 Y40.7337
G01 X74.8342 Y39.0283
G01 X74.1501 Y37.3336
G01 X73.4388 Y35.6501
G01 X72.7006 Y33.9783
G01 X71.9356 Y32.3186
G01 X71.1440 Y30.6714
G01 X70.3260 Y29.0371
G01 X69.4819 Y27.4162
G01 X68.6118 Y25.8090
G01 X67.7160 Y24.2161
G01 X66.7947 Y22.6378
G01 X65.8482 Y21.0744
G01 X64.9739 Y19.6915
G01 X64.0809 Y18.3206
G01 X63.1693 Y16.9620
G01 X62.2394 Y15.6159
G01 X61.2912 Y14.2826
G01 X60.3249 Y12.9623
G01 X59.3408 Y11.6553
G01 X58.3390 Y10.3618
G01 X58.1827 Y10.0842
G01 X58.0568 Y9.7916
G01 X57.9626 Y9.4873
G01 X57.9011 Y9.1748
G01 X57.8732 Y8.8574
G01 X57.8791 Y8.5389
G01 X57.9187 Y8.2229
G01 X57.9916 Y7.9128
G01 X58.0969 Y7.6121
G01 X58.2336 Y7.3244
G01 X58.4000 Y7.0527
G01 X58.5942 Y6.8003
G01 X58.8141 Y6.5698
G01 X59.0573 Y6.3640
G01 X59.3208 Y6.1851
G01 X59.6019 Y6.0352
G01 X59.8973 Y5.9159
G01 X60.2036 Y5.8286
G01 X60.5175 Y5.7743
G01 X60.8354 Y5.7536
G01 X77.0738 Y5.5588
G00 Z0.0000
G01 X86.0731 Y5.4509
G00 Z-17.5000
G01 Z-18.0000 F300
G01 Z-21.0000
G01 X102.3115 Y5.2561 F3000
G01 X102.4682 Y5.2584
G01 X102.6245 Y5.2687
G01 X102.7801 Y5.2873
G01 X102.9344 Y5.3139
G01 X103.0872 Y5.3486
G01 X103.2380 Y5.3911
G01 X103.3863 Y5.4415
G01 X103.5318 Y5.4996
G01 X103.6741 Y5.5652
G01 X103.8128 Y5.6381
G01 X103.9474 Y5.7182
G01 X104.0777 Y5.8052
G01 X104.2033 Y5.8988
G01 X104.3238 Y5.9989
G01 X104.4389 Y6.1052
G01 X104.5484 Y6.2173
G01 X104.6518 Y6.3349
G01 X104.7489 Y6.4579
G01 X104.8395 Y6.5857
G01 X104.9233 Y6.7180
G01 X105.0001 Y6.8546
G01 X105.0696 Y6.9950
G01 X105.1317 Y7.1388
G01 X105.1863 Y7.2857
G01 X105.2330 Y7.4352
G01 X105.2720 Y7.5870
G01 X105.3029 Y7.7405
G01 X105.3258 Y7.8955
G01 X105.3405 Y8.0515
G01 X105.3471 Y8.2080
G01 X105.3455 Y8.3647
G01 X105.3358 Y8.5210
G01 X105.3179 Y8.6767
G01 X105.2918 Y8.8311
G01 X105.2578 Y8.9841
G01 X105.2158 Y9.1350
G01 X105.1660 Y9.2835
G01 X105.1085 Y9.4293
G01 X105.0435 Y9.5718
G01 X104.9711 Y9.7108
G01 X104.8916 Y9.8457
G01 X104.8052 Y9.9764
G01 X104.7120 Y10.1023
G01 X104.6124 Y10.2232
G01 X104.5066 Y10.3388
G01 X104.3949 Y10.4487
G01 X104.2777 Y10.5526
G01 X104.1551 Y10.6502
G01 X104.0277 Y10.7413
G01 X103.8956 Y10.8256
G01 X103.7594 Y10.9029
G01 X103.6193 Y10.9730
G01 X81.6023 Y21.2785
G01 X81.5778 Y21.2951
G01 X82.6827 Y22.7075
G01 X83.7649 Y24.1372
G01 X84.8242 Y25.5840
G01 X85.8604 Y27.0475
G01 X86.8732 Y28.5273
G01 X87.8623 Y30.0230
G01 X88.8275 Y31.5342
G01 X89.7686 Y33.0606
G01 X90.6852 Y34.6018
G01 X91.5773 Y36.1573
G01 X92.4444 Y37.7269
G01 X93.2865 Y39.3100
G01 X94.1033 Y40.9064
G01 X94.8947 Y42.5155
G01 X95.6603 Y44.1370
G01 X96.4000 Y45.7705
G01 X97.1137 Y47.4155
G01 X97.8011 Y49.0717
G01 X98.4621 Y50.7386
G01 X99.0965 Y52.4158
G01 X99.6682 Y54.0408
G01 X100.2172 Y55.6736
G01 X100.7435 Y57.3139
G01 X101.2470 Y58.9613
G01 X101.7276 Y60.6156
G01 X102.1852 Y62.2764
G01 X102.6196 Y63.9433
G01 X103.0309 Y65.6162
G01 X103.4189 Y67.2945
G01 X103.7836 Y68.9781
G01 X104.1249 Y70.6667
G01 X104.4427 Y72.3597
G01 X104.7370 Y74.0571
G01 X105.0077 Y75.7583
G01 X105.2547 Y77.4632
G01 X105.4781 Y79.1713
G01 X105.7202 Y81.2317
G01 X105.9367 Y83.2949
G01 X106.1276 Y85.3607
G01 X106.2929 Y87.4287
G01 X106.4325 Y89.4986
G01 X106.5465 Y91.5701
G01 X106.6347 Y93.6428
G01 X106.6972 Y95.7164
G01 X106.7340 Y97.7907
G01 X106.7450 Y99.8653
G01 X106.7303 Y101.9398
G01 X106.6899 Y104.0140
G01 X106.6435 Y106.0318
G01 X106.5700 Y108.0489
G01 X106.4693 Y110.0648
G01 X106.3416 Y112.0791
G01 X106.1867 Y114.0916
G01 X106.0048 Y116.1018
G01 X105.7959 Y118.1093
G01 X105.5600 Y120.1139
G01 X105.2972 Y122.1151
G01 X105.0074 Y124.1126
G01 X104.6908 Y126.1060
G01 X104.3475 Y128.0950
G01 X104.0181 Y129.8466
G01 X103.6579 Y131.5921
G01 X103.2669 Y133.3310
G01 X102.8454 Y135.0627
G01 X102.3934 Y136.7867
G01 X101.9110 Y138.5025
G01 X101.3985 Y140.2095
G01 X100.8560 Y141.9072
G01 X100.2836 Y143.5951
G01 X99.6815 Y145.2726
G01 X99.0499 Y146.9392
G01 X98.3890 Y148.5944
G01 X97.7991 Y149.9843
G01 X97.1819 Y151.3622
G01 X96.5377 Y152.7277
G01 X95.8666 Y154.0803
G01 X95.1691 Y155.4194
G01 X94.4453 Y156.7444
G01 X93.6955 Y158.0550
G01 X92.9201 Y159.3505
G01 X92.6153 Y159.8235
G00 Z0.0000
G01 X92.0151 Y160.7751
G01 X91.3914 Y161.7116
G01 X90.7446 Y162.6322
G01 X90.0752 Y163.5364
G01 X89.3834 Y164.4236
G01 X88.6697 Y165.2934
G01 X87.9346 Y166.1452
G01 X87.1786 Y166.9783
G00 Z-17.5000
G01 Z-18.0000 F300
G01 Z-21.0000
G01 X86.5965 Y167.6086 F3000
G01 X85.9970 Y168.2223
G01 X85.3808 Y168.8192
G01 X84.7481 Y169.3987
G01 X84.0995 Y169.9603
G01 X83.4356 Y170.5036
G01 X82.7568 Y171.0283
G01 X82.0637 Y171.5339
G01 X81.3568 Y172.0200
G01 X80.6366 Y172.4862
G01 X79.9037 Y172.9322
G01 X79.1586 Y173.3576
G01 X78.3507 Y173.7836
G01 X77.5273 Y174.1791
G01 X76.6897 Y174.5436
G01 X75.8391 Y174.8764
G01 X74.9767 Y175.1773
G01 X74.1036 Y175.4457
G01 X73.2210 Y175.6812
G01 X72.3303 Y175.8837
G01 X71.4327 Y176.0526
G01 X70.5293 Y176.1879
G01 X69.6215 Y176.2893
G01 X68.7106 Y176.3567
G01 X67.7978 Y176.3900
G01 X66.8844 Y176.3892
G01 X65.9716 Y176.3542
G01 X65.0608 Y176.2851
G01 X64.3993 Y176.1960
G01 X63.7409 Y176.0863
G01 X63.0863 Y175.9560
G01 X62.4361 Y175.8054
G01 X61.7908 Y175.6345
G01 X61.1513 Y175.4436
G01 X60.5180 Y175.2327
G01 X59.8916 Y175.0022
G01 X59.2728 Y174.7522
G01 X58.6620 Y174.4829
G01 X58.0600 Y174.1947
G01 X57.4672 Y173.8879
G01 X56.8844 Y173.5626
G01 X56.3120 Y173.2193
G01 X55.7506 Y172.8583
G01 X55.2008 Y172.4799
G01 X54.5736 Y172.0205
G01 X53.9574 Y171.5465
G01 X53.3524 Y171.0583
G01 X52.7590 Y170.5561
G01 X52.1774 Y170.0402
G01 X51.6081 Y169.5109
G01 X51.0513 Y168.9683
G01 X50.5073 Y168.4129
G01 X49.9765 Y167.8450
G01 X49.4591 Y167.2648
G01 X48.9553 Y166.6727
G01 X48.4656 Y166.0690
G01 X47.8273 Y165.2479
G01 X47.2040 Y164.4155
G01 X46.5959 Y163.5720
G01 X46.0030 Y162.7176
G01 X45.4257 Y161.8527
G01 X44.8642 Y160.9774
G01 X44.3185 Y160.0922
G01 X43.7889 Y159.1972
G01 X43.2756 Y158.2928
G01 X42.7787 Y157.3793
G01 X42.2984 Y156.4570
G01 X41.8348 Y155.5261
G01 X41.0730 Y153.9483
G01 X40.3440 Y152.3551
G01 X39.6480 Y150.7472
G01 X38.9855 Y149.1252
G01 X38.6682 Y153.2657
G01 X38.3747 Y171.3058
G01 X38.3674 Y171.4709
G01 X38.3511 Y171.6353
G01 X38.3258 Y171.7986
G01 X38.2915 Y171.9603
G01 X38.2483 Y172.1198
G01 X38.1965 Y172.2767
G01 X38.1361 Y172.4304
G01 X38.0673 Y172.5807
G01 X37.9903 Y172.7269
G01 X37.9054 Y172.8687
G01 X37.8128 Y173.0055
G01 X37.7129 Y173.1371
G01 X37.6058 Y173.2630
G01 X37.4920 Y173.3827
G01 X37.3717 Y173.4961
G01 X37.2454 Y173.6026
G01 X37.1135 Y173.7020
G01 X36.9762 Y173.7940
G01 X36.8341 Y173.8783
G01 X36.6876 Y173.9547
G01 X36.5370 Y174.0229
G01 X36.3830 Y174.0826
G01 X36.2259 Y174.1338
G01 X36.0662 Y174.1763
G01 X35.9044 Y174.2100
G01 X35.7411 Y174.2346
G01 X35.5766 Y174.2503
G01 X35.4115 Y174.2568
G01 X7.5110 Y174.5955
G01 X7.3480 Y174.5930
G01 X7.1854 Y174.5817
G01 X7.0237 Y174.5616
G01 X6.8633 Y174.5328
G01 X6.7047 Y174.4952
G01 X6.5483 Y174.4491
G01 X6.3947 Y174.3946
G01 X6.2443 Y174.3319
G01 X6.0976 Y174.2610
G01 X5.9548 Y174.1823
G01 X5.8166 Y174.0960
G01 X5.6833 Y174.0022
G01 X5.5552 Y173.9014
G01 X5.4329 Y173.7938
G01 X5.3165 Y173.6796
G01 X5.2065 Y173.5594
G01 X5.1032 Y173.4333
G01 X5.0069 Y173.3018
G01 X4.9179 Y173.1653
G01 X4.8364 Y173.0241
G01 X4.7628 Y172.8788
G01 X4.6971 Y172.7296
G01 X4.6396 Y172.5771
G01 X4.5905 Y172.4217
G01 X4.5499 Y172.2638
G01 X4.5179 Y172.1040
G01 X4.4947 Y171.9427
G01 X4.4802 Y171.7804
G01 X4.4746 Y171.6175
G01 X4.4779 Y171.4545
G01 X4.4900 Y171.2920
G01 X4.5109 Y171.1304
G01 X4.5405 Y170.9701
G01 X4.5788 Y170.8117
G01 X4.6257 Y170.6556
G01 X4.6809 Y170.5023
G01 X4.7444 Y170.3522
G01 X4.8160 Y170.2057
G01 X4.8954 Y170.0634
G01 X4.9824 Y169.9256
G01 X5.0768 Y169.7927
G01 X5.1782 Y169.6652
G01 X5.2865 Y169.5433
G01 X5.4011 Y169.4275
G01 X5.5220 Y169.3181
G01 X5.6485 Y169.2154
G01 X5.7805 Y169.1198
G01 X5.9174 Y169.0314
G01 X23.2657 Y158.4970
G01 X22.5028 Y95.1601
G00 Z0.0000
G01 X22.3944 Y86.1607
G00 Z-20.5000
G01 Z-21.0000 F300
G01 Z-24.0000
G01 X21.6316 Y22.8237 F3000
G01 X3.9527 Y11.9772
G01 X3.8176 Y11.8892
G01 X3.6875 Y11.7942
G01 X3.5626 Y11.6922
G01 X3.4434 Y11.5837
G01 X3.3302 Y11.4690
G01 X3.2233 Y11.3483
G01 X3.1231 Y11.2221
G01 X3.0298 Y11.0907
G01 X2.9436 Y10.9545
G01 X2.8649 Y10.8138
G01 X2.7939 Y10.6691
G01 X2.7308 Y10.5208
G01 X2.6757 Y10.3693
G01 X2.6288 Y10.2151
G01 X2.5903 Y10.0586
G01 X2.5602 Y9.9002
G01 X2.5387 Y9.7405
G01 X2.5258 Y9.5798
G01 X2.5216 Y9.4187
G01 X2.5260 Y9.2576
G01 X2.5390 Y9.0969
G01 X2.5607 Y8.9372
G01 X2.5909 Y8.7789
G01 X2.6296 Y8.6224
G01 X2.6766 Y8.4682
G01 X2.7318 Y8.3168
G01 X2.7951 Y8.1685
G01 X2.8663 Y8.0239
G01 X2.9451 Y7.8833
G01 X3.0313 Y7.7471
G01 X3.1248 Y7.6158
G01 X3.2252 Y7.4897
G01 X3.3321 Y7.3691
G01 X3.4455 Y7.2545
G01 X3.5648 Y7.1461
G01 X3.6897 Y7.0443
G01 X3.8200 Y6.9494
G01 X3.9551 Y6.8615
G01 X4.0948 Y6.7811
G01 X4.2386 Y6.7083
G01 X4.3861 Y6.6433
G01 X4.5369 Y6.5863
G01 X4.6905 Y6.5375
G01 X4.8465 Y6.4970
G01 X5.0045 Y6.4650
G01 X5.1640 Y6.4415
G01 X5.3245 Y6.4266
G01 X5.4855 Y6.4203
G01 X41.8912 Y5.9829
G01 X42.2157 Y5.9966
G01 X42.5368 Y6.0452
G01 X42.8508 Y6.1284
G01 X43.1540 Y6.2449
G01 X43.4427 Y6.3936
G01 X43.7138 Y6.5726
G01 X43.9638 Y6.7799
G01 X44.1900 Y7.0130
G01 X44.3897 Y7.2692
G01 X44.5605 Y7.5454
G01 X44.7005 Y7.8386
G01 X44.8079 Y8.1451
G01 X44.8816 Y8.4614
G01 X44.9206 Y8.7839
G01 X44.9246 Y9.1087
G01 X44.8934 Y9.4320
G01 X44.2981 Y13.4078
G01 X43.7369 Y17.3886
G01 X43.2098 Y21.3741
G01 X42.7169 Y25.3640
G01 X42.2583 Y29.3579
G01 X41.8339 Y33.3556
G01 X41.4439 Y37.3569
G01 X41.0881 Y41.3613
G01 X40.7667 Y45.3686
G01 X40.4797 Y49.3785
G01 X40.2270 Y53.3907
G01 X40.0088 Y57.4050
G01 X39.8250 Y61.4210
G01 X39.6756 Y65.4384
G01 X39.5607 Y69.4569
G01 X39.4802 Y73.4763
G01 X39.4342 Y77.4962
G01 X39.4227 Y81.5164
G01 X39.4456 Y85.5365
G01 X39.5030 Y89.5563
G01 X39.5637 Y91.8174
G01 X39.6516 Y94.0776
G01 X39.7667 Y96.3367
G01 X39.9091 Y98.5941
G01 X40.0786 Y100.8497
G01 X40.2753 Y103.1031
G01 X40.4992 Y105.3539
G01 X40.7501 Y107.6019
G01 X41.0281 Y109.8467
G01 X41.3332 Y112.0880
G01 X41.6652 Y114.3254
G01 X42.0242 Y116.5587
G01 X42.3286 Y118.3098
G01 X42.6566 Y120.0567
G01 X43.0080 Y121.7990
G01 X43.3828 Y123.5364
G01 X43.7809 Y125.2686
G01 X44.2022 Y126.9953
G01 X44.6467 Y128.7162
G01 X45.1143 Y130.4310
G01 X45.6049 Y132.1393
G01 X46.1184 Y133.8409
G01 X46.6547 Y135.5355
G01 X47.2138 Y137.2226
G01 X47.7878 Y138.8724
G01 X48.3909 Y140.5118
G01 X49.0228 Y142.1402
G01 X49.6834 Y143.7573
G01 X50.3724 Y145.3624
G01 X51.0897 Y146.9551
G01 X51.8350 Y148.5349
G01 X52.6081 Y150.1013
G01 X53.0214 Y150.9050
G01 X53.4488 Y151.7014
G01 X53.8901 Y152.4901
G01 X54.3453 Y153.2710
G01 X54.8141 Y154.0437
G01 X55.2965 Y154.8080
G01 X55.7923 Y155.5637
G01 X56.3013 Y156.3105
G01 X56.7018 Y156.8758
G01 X57.1173 Y157.4301
G01 X57.5477 Y157.9730
G01 X57.9925 Y158.5041
G01 X58.4515 Y159.0230
G01 X58.9243 Y159.5294
G01 X59.4105 Y160.0228
G01 X59.9099 Y160.5030
G01 X60.2850 Y160.8431
G01 X60.6737 Y161.1675
G01 X61.0754 Y161.4758
G01 X61.4893 Y161.7674
G01 X61.9149 Y162.0418
G01 X62.3513 Y162.2985
G01 X62.7978 Y162.5372
G01 X63.2538 Y162.7574
G01 X63.7211 Y162.9463
G01 X64.1999 Y163.1039
G01 X64.6881 Y163.2294
G01 X65.1836 Y163.3223
G01 X65.6841 Y163.3822
G01 X66.1875 Y163.4087
G01 X66.6915 Y163.4019
G01 X67.1940 Y163.3617
G01 X67.7499 Y163.3002
G01 X68.3016 Y163.2087
G01 X68.8476 Y163.0874
G01 X69.3862 Y162.9368
G01 X69.9158 Y162.7572
G01 X70.4350 Y162.5491
G01 X70.9421 Y162.3132
G01 X71.4357 Y162.0502
G01 X71.9143 Y161.7609
G01 X72.3765 Y161.4460
G01 X72.8210 Y161.1066
G01 X73.2464 Y160.7435
G01 X73.7226 Y160.2962
G01 X74.1818 Y159.8315
G01 X74.6235 Y159.3501
G01 X75.0469 Y158.8526
G01 X75.4515 Y158.3396
G01 X75.8368 Y157.8120
G01 X76.2022 Y157.2704
G01 X76.5472 Y156.7156
G01 X76.9742 Y155.9755
G01 X77.3824 Y155.2248
G01 X77.7716 Y154.4641
G01 X78.1415 Y153.6939
G01 X78.4921 Y152.9147
G01 X78.8229 Y152.1268
G01 X79.1338 Y151.3309
G01 X79.4246 Y150.5275
G01 X79.7738 Y149.4935
G01 X80.1055 Y148.4538
G01 X80.4198 Y147.4086
G01 X80.7165 Y146.3584
G01 X80.9956 Y145.3033
G01 X81.2569 Y144.2437
G01 X81.5005 Y143.1798
G01 X81.7261 Y142.1121
G01 X82.0947 Y140.1787
G01 X82.4345 Y138.2401
G01 X82.7454 Y136.2966
G01 X83.0273 Y134.3487
G01 X83.2803 Y132.3968
G01 X83.5041 Y130.4414
G01 X83.6988 Y128.4829
G01 X83.8644 Y126.5217
G01 X84.0725 Y123.6334
G01 X84.2496 Y120.7431
G01 X84.3959 Y117.8511
G01 X84.5112 Y114.9576
G01 X84.5955 Y112.0631
G01 X84.6489 Y109.1679
G01 X84.6713 Y106.2722
G01 X84.6627 Y103.3765
G01 X84.6572 Y101.1659
G01 X84.6333 Y98.9553
G01 X84.5911 Y96.7451
G01 X84.5307 Y94.5353
G01 X84.4520 Y92.3260
G01 X84.3549 Y90.1175
G01 X84.2397 Y87.9098
G01 X84.1061 Y85.7032
G01 X83.9543 Y83.4978
G01 X83.7843 Y81.2936
G01 X83.5960 Y79.0910
G01 X83.3895 Y76.8900
G01 X83.2003 Y75.0252
G01 X82.9902 Y73.1626
G01 X82.7591 Y71.3025
G01 X82.5071 Y69.4451
G01 X82.2342 Y67.5907
G01 X81.9405 Y65.7394
G01 X81.6260 Y63.8916
G01 X81.2907 Y62.0474
G01 X80.9347 Y60.2071
G01 X80.5580 Y58.3709
G01 X80.1607 Y56.5391
G01 X79.7428 Y54.7119
G01 X79.3101 Y52.9363
G01 X78.8490 Y51.1679
G01 X78.3594 Y49.4071
G01 X77.8417 Y47.6544
G01 X77.2958 Y45.9103
G01 X76.7220 Y44.1752
G01 X76.1203 Y42.4495
G01 X75.4910 Y40.7337
G01 X74.8342 Y39.0283
G01 X74.1501 Y37.3336
G01 X73.4388 Y35.6501
G01 X72.7006 Y33.9783
G01 X71.9356 Y32.3186
G01 X71.1440 Y30.6714
G01 X70.3260 Y29.0371
G01 X69.4819 Y27.4162
G01 X68.6118 Y25.8090
G01 X67.7160 Y24.2161
G01 X66.7947 Y22.6378
G01 X65.8482 Y21.0744
G01 X64.9739 Y19.6915
G01 X64.0809 Y18.3206
G01 X63.1693 Y16.9620
G01 X62.2394 Y15.6159
G01 X61.2912 Y14.2826
G01 X60.3249 Y12.9623
G01 X59.3408 Y11.6553
G01 X58.3390 Y10.3618
G01 X58.1827 Y10.0842
G01 X58.0568 Y9.7916
G01 X57.9626 Y9.4873
G01 X57.9011 Y9.1748
G01 X57.8732 Y8.8574
G01 X57.8791 Y8.5389
G01 X57.9187 Y8.2229
G01 X57.9916 Y7.9128
G01 X58.0969 Y7.6121
G01 X58.2336 Y7.3244
G01 X58.4000 Y7.0527
G01 X58.5942 Y6.8003
G01 X58.8141 Y6.5698
G01 X59.0573 Y6.3640
G01 X59.3208 Y6.1851
G01 X59.6019 Y6.0352
G01 X59.8973 Y5.9159
G01 X60.2036 Y5.8286
G01 X60.5175 Y5.7743
G01 X60.8354 Y5.7536
G01 X77.0738 Y5.5588
G00 Z0.0000
G01 X86.0731 Y5.4509
G00 Z-20.5000
G01 Z-21.0000 F300
G01 Z-24.0000
G01 X102.3115 Y5.2561 F3000
G01 X102.4682 Y5.2584
G01 X102.6245 Y5.2687
G01 X102.7801 Y5.2873
G01 X102.9344 Y5.3139
G01 X103.0872 Y5.3486
G01 X103.2380 Y5.3911
G01 X103.3863 Y5.4415
G01 X103.5318 Y5.4996
G01 X103.6741 Y5.5652
G01 X103.8128 Y5.6381
G01 X103.9474 Y5.7182
G01 X104.0777 Y5.8052
G01 X104.2033 Y5.8988
G01 X104.3238 Y5.9989
G01 X104.4389 Y6.1052
G01 X104.5484 Y6.2173
G01 X104.6518 Y6.3349
G01 X104.7489 Y6.4579
G01 X104.8395 Y6.5857
G01 X104.9233 Y6.7180
G01 X105.0001 Y6.8546
G01 X105.0696 Y6.9950
G01 X105.1317 Y7.1388
G01 X105.1863 Y7.2857
G01 X105.2330 Y7.4352
G01 X105.2720 Y7.5870
G01 X105.3029 Y7.7405
G01 X105.3258 Y7.8955
G01 X105.3405 Y8.0515
G01 X105.3471 Y8.2080
G01 X105.3455 Y8.3647
G01 X105.3358 Y8.5210
G01 X105.3179 Y8.6767
G01 X105.2918 Y8.8311
G01 X105.2578 Y8.9841
G01 X105.2158 Y9.1350
G01 X105.1660 Y9.2835
G01 X105.1085 Y9.4293
G01 X105.0435 Y9.5718
G01 X104.9711 Y9.7108
G01 X104.8916 Y9.8457
G01 X104.8052 Y9.9764
G01 X104.7120 Y10.1023
G01 X104.6124 Y10.2232
G01 X104.5066 Y10.3388
G01 X104.3949 Y10.4487
G01 X104.2777 Y10.5526
G01 X104.1551 Y10.6502
G01 X104.0277 Y10.7413
G01 X103.8956 Y10.8256
G01 X103.7594 Y10.9029
G01 X103.6193 Y10.9730
G01 X81.6023 Y21.2785
G01 X81.5778 Y21.2951
G01 X82.6827 Y22.7075
G01 X83.7649 Y24.1372
G01 X84.8242 Y25.5840
G01 X85.8604 Y27.0475
G01 X86.8732 Y28.5273
G01 X87.8623 Y30.0230
G01 X88.8275 Y31.5342
G01 X89.7686 Y33.0606
G01 X90.6852 Y34.6018
G01 X91.5773 Y36.1573
G01 X92.4444 Y37.7269
G01 X93.2865 Y39.3100
G01 X94.1033 Y40.9064
G01 X94.8947 Y42.5155
G01 X95.6603 Y44.1370
G01 X96.4000 Y45.7705
G01 X97.1137 Y47.4155
G01 X97.8011 Y49.0717
G01 X98.4621 Y50.7386
G01 X99.0965 Y52.4158
G01 X99.6682 Y54.0408
G01 X100.2172 Y55.6736
G01 X100.7435 Y57.3139
G01 X101.2470 Y58.9613
G01 X101.7276 Y60.6156
G01 X102.1852 Y62.2764
G01 X102.6196 Y63.9433
G01 X103.0309 Y65.6162
G01 X103.4189 Y67.2945
G01 X103.7836 Y68.9781
G01 X104.1249 Y70.6667
G01 X104.4427 Y72.3597
G01 X104.7370 Y74.0571
G01 X105.0077 Y75.7583
G01 X105.2547 Y77.4632
G01 X105.4781 Y79.1713
G01 X105.7202 Y81.2317
G01 X105.9367 Y83.2949
G01 X106.1276 Y85.3607
G01 X106.2929 Y87.4287
G01 X106.4325 Y89.4986
G01 X106.5465 Y91.5701
G01 X106.6347 Y93.6428
G01 X106.6972 Y95.7164
G01 X106.7340 Y97.7907
G01 X106.7450 Y99.8653
G01 X106.7303 Y101.9398
G01 X106.6899 Y104.0140
G01 X106.6435 Y106.0318
G01 X106.5700 Y108.0489
G01 X106.4693 Y110.0648
G01 X106.3416 Y112.0791
